/* XPM */
static char *_84970247899450e86994f27297d8575XIfbErpylZiZ4qKo[] = {
/* columns rows colors chars-per-pixel */
"64 64 215 2 ",
"   c #0D0304",
".  c #0F0A07",
"X  c #0D020C",
"o  c #0B0506",
"O  c #120505",
"+  c #130807",
"@  c #12060B",
"#  c #150A0B",
"$  c #190C0D",
"%  c #19100E",
"&  c #0E0311",
"*  c #120612",
"=  c #150B13",
"-  c #1A0E13",
";  c #160B18",
":  c #1A0E1A",
">  c #171211",
",  c #1C1213",
"<  c #1E131B",
"1  c #1E1819",
"2  c #211515",
"3  c #22171A",
"4  c #241B1B",
"5  c #2A1C1D",
"6  c #2A201F",
"7  c #211721",
"8  c #261B25",
"9  c #2A1E25",
"0  c #2A1E28",
"q  c #2B2124",
"w  c #2D242A",
"e  c #2C292D",
"r  c #31262A",
"t  c #352A2B",
"y  c #392D2D",
"u  c #322427",
"i  c #3A2E35",
"p  c #342730",
"a  c #3C3233",
"s  c #3C333A",
"d  c #39322C",
"f  c #403435",
"g  c #413739",
"h  c #453A3C",
"j  c #4A3D3D",
"k  c #423837",
"l  c #48403E",
"z  c #3E3F44",
"x  c #4B3F42",
"c  c #423840",
"v  c #4C4344",
"b  c #4D454C",
"n  c #4B4649",
"m  c #52474A",
"M  c #544A4D",
"N  c #56484A",
"B  c #4E4953",
"V  c #534B53",
"C  c #5A4F53",
"Z  c #534E5A",
"A  c #5B4F5A",
"S  c #5C5255",
"D  c #55525C",
"F  c #5C545B",
"G  c #5D585E",
"H  c #55504D",
"J  c #635454",
"K  c #62565C",
"L  c #635A5C",
"P  c #665A5B",
"I  c #6A605F",
"U  c #5D5562",
"Y  c #5D5A63",
"T  c #5B5765",
"R  c #645B64",
"E  c #6A5E65",
"W  c #625C6A",
"Q  c #6B5F6A",
"!  c #645761",
"~  c #6C6266",
"^  c #65616C",
"/  c #6D626C",
"(  c #69656A",
")  c #726365",
"_  c #72656C",
"`  c #746A6C",
"'  c #7B6B6E",
"]  c #6B6674",
"[  c #726572",
"{  c #756A73",
"}  c #7A6D74",
"|  c #766E79",
" . c #7A6E79",
".. c #796773",
"X. c #7D7275",
"o. c #767079",
"O. c #7D727B",
"+. c #7C7678",
"@. c #806F75",
"#. c #827376",
"$. c #83757B",
"%. c #89757B",
"&. c #85797C",
"*. c #8A7B7D",
"=. c #86817E",
"-. c #7E6F82",
";. c #7E7681",
":. c #7E7981",
">. c #837681",
",. c #857A83",
"<. c #8C7D82",
"1. c #8B7E89",
"2. c #877A87",
"3. c #917E84",
"4. c #8E8184",
"5. c #8D828A",
"6. c #878088",
"7. c #928385",
"8. c #94858A",
"9. c #99858C",
"0. c #96898C",
"q. c #9A8B8D",
"w. c #9B8587",
"e. c #958691",
"r. c #958A92",
"t. c #9C8D92",
"y. c #9B8E99",
"u. c #988791",
"i. c #9E9194",
"p. c #9E939B",
"a. c #A28E91",
"s. c #A08E9C",
"d. c #A29295",
"f. c #AA9497",
"g. c #A4959A",
"h. c #AB9699",
"j. c #A4999B",
"k. c #AA9A9C",
"l. c #AA9896",
"z. c #B19C9E",
"x. c #A28C8E",
"c. c #AC9CA1",
"v. c #A597A0",
"b. c #B39EA1",
"n. c #AEA1A4",
"m. c #ACA6A8",
"M. c #B4A2A3",
"N. c #BAA4A6",
"B. c #BCA9A7",
"V. c #BBA6A9",
"C. c #B5AAAD",
"Z. c #BCAAAB",
"A. c #B8B0AE",
"S. c #BEAFB3",
"D. c #BEB0B0",
"F. c #C2ACAD",
"G. c #C5B1AC",
"H. c #C9B4AD",
"J. c #C5AEB1",
"K. c #C8AFB3",
"L. c #C5B2B3",
"P. c #CAB4B5",
"I. c #CEB9B5",
"U. c #C7B3B9",
"Y. c #CDB6B9",
"T. c #CDBABA",
"R. c #C6BBB9",
"E. c #D2BDB6",
"W. c #D1B6BA",
"Q. c #D2BCBD",
"!. c #D5BCBA",
"~. c #CFC4BE",
"^. c #D6C1BD",
"/. c #DAC4BE",
"(. c #D7C3B9",
"). c #CFBAC1",
"_. c #D4BEC0",
"`. c #D6BDC1",
"'. c #D4BEC1",
"]. c #D8BEC2",
"[. c #CDC2C3",
"{. c #D6C0C3",
"}. c #D6C2C2",
"|. c #D6C2C3",
" X c #D8C2C5",
".X c #DAC2C5",
"XX c #DBC5C7",
"oX c #DAC5C5",
"OX c #DAC4C4",
"+X c #DEC9C4",
"@X c #DCC6C9",
"#X c #DCC6C9",
"$X c #DEC8CA",
"%X c #DDCACB",
"&X c #DCCACB",
"*X c #D3C4C9",
"=X c #DED3CD",
"-X c #E1CBC6",
";X c #E1C6CA",
":X c #E0CACC",
">X c #E3CACE",
",X c #E2CCCE",
"<X c #E2CCCB",
"1X c #E5D2CF",
"2X c #E8D1CE",
"3X c #E4D0C5",
"4X c #E4CDD1",
"5X c #E9CCD1",
"6X c #E6D2D3",
"7X c #EAD4D3",
"8X c #E6DADC",
"9X c #EDD9D8",
"0X c #F1DBDE",
"qX c #EEDEE1",
"wX c #F2E4E3",
/* pixels */
"f.w.f.h.h.V.F.P. XXX X,X:X,X X{.{.@XP.Q.{._.Q.@X4X#X#X'.U.'.#X'.Y.Q.{.XX_.T.P.L.L.P.T.Z.F.N.M.L.Z.M.l.M.Z.M.k.g.b.M.L.b.M.M.Z.n.",
"h.h.V.P.Q.Q.P.P._.:X:X XQ.{.{.Q.P._. X X,X{.{.Q.J.J.T.'.'.#X$X'.}.].Q.J.L.J.L.F.F.V.Z.N.J.Z.Z.L.M.N.b.M.N.N.Z.M.x.a.h.h.f.w.d.d.",
"_. X X$X$X X X@X9X4X@X X:X,XXXQ.L.T. X XXXQ._.Y.Y.Q.@X XT.Q. X_.Y.Q.T.F.Y.Q.Q.K.J.F.F.M.N.F.Z.M.L.P.Z.b.b.N.F.N.N.M.h.z.M.z.V.F.",
" XXXQ.@X,X$X,X_. X{.XXXX,X@X$X@X{.Q._.:X{.XX$X$X4X@X{.Q.Q. X X'.P._.Q.Y._. XY.J.L.J.P.F.M.Z.N.h.K.Y.W.W.!._.Y.F.Y._.F.Y.Q.T.Q.T.",
"P. X X XP.P.4X:XQ.@X7X@X@XXX$X XQ.Y.Q.XX_.:X,XXX<X+XXX}.}.XX{.T.T. XY.T.W. XW.!.Q.F.P.!.L.K.L.P.J.K.Y.W.!.!.P.F.Q.:X_.$X X^.XX$X",
"_.XX{.$X$X:X6XT.,X:X$X X@X@X_.P. X_.,X XXX4X6X_.{.<X7X6X$X{.Q.^.XX@XT.Q.T.{.{.,X:XQ.Q. XQ.XX X X'.Q.Q.Y.P.Y.Y.{.W.Q.Y.$X$X&X6XwX",
" X$XQ._.XXXX:X:X:X:X:X4X:X@XXX$X XQ.$X_.Q.Q._.T.{.{.{. X@XXX{._.XX{.{.Q.T.T.Q.{.{.T.T.Y.L.{.Q.P.N.V.J.J.J.P.P.Q._.Q. X6X8X8X8X8X",
" X6X@X{.$XT.L.XXQ.:X:X@XQ.{._._.{.T. X:XQ.Y.L.{.Y.T.P.P.P.L.J.L.F.Z.P.F.U.F.R.U.M.M.M.M.M.Z.b.b.b.b.V.N.V.J.Z.F.Q.T.'.U.C.C.C.m.",
"XXXXQ.@X:X$X7X4XQ.;X X_.,XT.I.T.L.Q.Q.I.Q.Q.P.^.T.{.Q.Y.F.Q.Z.Z.B.B.P.Y.L.Z.Z.T.Z.N.M.Z.Z.Y.M.B.n.c.M.S.L.L.J.J.U.N.b.w.w.q.w.4.",
"T.^.Y.{.XXQ.^.{.Q._.:X<XP.T.^.L.Q.XXL.I.P.T.7XQ.XX{.Y.Q.P.Y.F.P.G.J.Y.T.T.Q.T.Q.{.L.Y.Q.F.XXQ.E.U.T.'.@X'.'.Q. XJ.J.Z.f.f.f.q.q.",
"9X}.+X<XG.G.-XY.L.Q.E.F.P.+X^.B.P.T.$XT.T.{.{.7XT._.P.P.F.P.T. XY.P.L.J.P.Q.E.Y.{.Q._.XX X7XOXOX+X1X1X,XQ.Y.P.Y.T.Z.L.'.T.M.M.l.",
"/.^./.+X(.E.+XE.P.$X+XF./.^.+X+X{.L.Q.T.T.{.Q.Q.Q.{.L.P.T. XXX{.{._.{.Q.{.+XOX/.2X;XT.P.Q.7X+X-X2X7X2X<XQ.Q.P.K._.Q.L.L.U.g.l.L.",
"^./.E.I.(.+X<X+XQ.Q.-X-X+X^.1XT.M.R.&X&X&XXXQ.@XQ. XQ. XQ.F.J.Y.P.Y. X@X+XOX(.(.<X!.I.Q.Q.7X9X+X!./.!.Q.I.W.P.P.Z.b.g.a.q.q.k.d.",
"^./.+X+X-X3XOXG.L.P.I.;XOX{.k.J 4 2 r I k.&X@XQ.Q. X_.T.F.N.V.L.P.Y. X+X}.!.E./.I.Y.Q.+X+X;X{.F.F.L.F.F.N.V.N.Z.h.k.t.0.c.c.g.0.",
"Y./.I.P.+XXXP.T.F.Q.Q.;X XM.h O < , , r 3 ' XX XXX XQ.F.P._.T.L.Q.Q.Q.!.Q.!.E./.(.-X+X.X@X_.J.N.Y.P.Z.Z.b.b.k.c.d.t.v.g.r.1.8.e.",
"OXE.^.+X$X@X{.'.P.Z.K. X@X3.# = $ S $.M S R.P._.Q._.@X{._.Q.P.Q.E.Q.^.}.-X-X/./.+X(.+X4X4X4X4X).U.Z.c.b.k.g.d.d.8.8.p.y.p.y.5.1.",
"-X^./.<X+X^.OX+X3X/.{.$X[.a # $ J Z.oX6X$XQ. X!. X{.Q.].].W. X.XQ.T.T. X X!.].].+XP.L.^. XqX*Xc.e.%.1.<.5.5.5.0.r.5.O.,.r.5.,.{ ",
"(.+X-X+X+XOX/.+X(.+XXX XM., # + q.&XR.&XT.{.J.@X!.I.Q.Q. X XQ.M.*.P C J J ' a.F.}.&X&XY.L.0.1. .{ [  .,.$._ { >. .5.,.5.o.>.>.1.",
"G.(.E.!.-X-X/.-X(.+XOXoXd.  O $ k.&XR.P.Q.P.{.XXW.Q.{.{.R.T.#.f 4 4 , 5 $ % t a ` M.T.S.i.$.R U [  . .[ [ [ [ W Q / { X.2.| ;.;.",
"Y.E.Y.E.^.I.H.E././.^.oXq.#   $ Z.'.'.Q.Q.].@X_.!.;X+X&XL._ , # o > 1 . . , . . $ g 0.8. .K s w s U O.|  .2.-.[ / { | 2.:.o.{ X.",
"Y.Y.(./.(.E.E.(.+XOXQ.Q.d.% $ $ L.F.].#X;X5XW.!.W.Q. X0.s @ 3 # # # @ , ,   $ , # # M X.~ v = , o 8 x Q ,.O.>.>.Q  .2.| X.O.;.;.",
"-X+X+X+XOX-X+XI.OX!.I.E.Z.+ # $ f. XQ.Q..X`.;X4XT.@X0.m = 1 4 + # $ # $ # # , # # $ 1 { X._ q   @   o c O.Q O.} [ [ ,.[ 2.O.,.>.",
"+X+X/.(.+X2X<X^.{.L.I.E.~.d   # h }. X0X_.Q.'.T.6X<.r i ; , o 4 =.l , O # , + H M < > V +.+.~ g 0 X @ w [ / O. .>.$.O.1.$.O._ $.",
"/.<X/.E.E.Y.I. X@X!.,X(.=X&.$ O # 4.*X XF.L.U.U.%.i 8 0 ; X + $ =.j., O # @ n j.&.= ; / { o.X.$./ 7 < = / ;.O.>.,.O.{  . .O._  .",
"(.OX:XI.E.I.OX<X&X$XE./.;XT.4 + $ 9 D.T.R.R.Z.` 0 < 3 w ; o   # , $ $ O # #   4 , + < [ ,.,.O.$./ 8 : = / >.,. .$.r.5.$.>.,. .$.",
"OX^.{.T.OX(.^.Q.{.Q.E./.G.T.' @ $ , L L.[.L.` 3 < = ; 8 = @ @ $ $ # # O # $ $ # # + 0 O.5.5.>.[ A 8 X < { 1.$.>.e.,.,.,.{ 5.p.5.",
"OXOX_._.XX^.E.T.L.E./.OXE.oXZ.y # #   &.A.+.w < = @ = < = * * = $ +   # + O # O @ , b 5.>. . .F 0 X ; : _ ,.O.,.,.,.$.5.1.>.O.1.",
"P.E.Q.'.P.P.Y.XX^.^.E.H.(.XX&XM., + O # S = = ; * * ; : = * * * @ + O + + + @ @ - m  .O.>.5._ w * X ; w { ,.1.>.,.e.5.,.$.1.>.O.",
"F.Q.'. XP.I.T.,X9XOXY.P.T.T.R.Z.l $ # # + X * & X * ; = * X X X   + $   + $ O - h { X./ X.K w   @ = X C O.5.1. .$.,.O.X.$.5.,.O.",
"E.XX X$XOX}.E.{.(.OXP.T.L.M.g.4.' $ O $ # @ X & X * = X & X X X # O # O O # 4 S +.+./ b s q -     < b ,.>.r.O.,.,.$.O.e.r.5.,.5.",
"/.OX_._.^.^.Y.T.^.oXB.l.7.*.&.*.X.f $   X ; X & X & * X @     O $   O # # # g &.` a 4 4 + o , % = a 5.<. .,._ 1.,.$.5.r.O.,.8.,.",
"(.}.Q.I.Y.E./.+XL.7.` ` #.4.X.' ~ g @ @ X X X & X X @ X @         O O O   + q a 2 %       # $ 2 S &.r.t.1.1.,.r.O.5.1.5.8.5.O.1.",
"G.E.E.(.+X^.Z.a.%.} &.<.&.O.O.X.0.V = @ X X = X & X X & X X X X * X #   + O @ @ # $   $ $ $ a *.2.} .. .>. .5.5.5.6.e.>.,.1.r.e.",
"G.F.OXOXG.l.7.' Q ,.O.O.O.O.O.,.$.i X X X * * * X X & * X X X X & X + O + O #       % % 6 S 4.4.y.e.$.e.>.O.>.e.y.1.>.e.5.g.y.g.",
"$XU.l.7.*.#.Q .._  .,.R O. .E ! / 7 X X X * X * X & & & X * = * X X + O # O $ + + -   v } 7.[ ,.e.8.8.1.>.$.r.g.t.7.t.r.1.$.,.,.",
"c.7.#.<.$.<. .} Q O.[ { / } ,.>.F ; & X X & X & = & X X X X X X   + @ O O O $ @ @ r / t.5. .$.5.9.1.}  .$.t.7.O.<.8.t.t.<.0.7.,.",
",.,.,.8.,.O.>.{  .{  .O.E O.{ <.s = X X X X * X X X X * * X @ X   @ O   O O @ O p / 1. .,.O.,.r.t.e.0.e.9.u.7.&.3.*.9...&.<.i.4.",
"_ O.{  .5.[ O./  .O.{ O.1. . . .8 @ X @ @ X # X X X X @ X X @ * O @     # $ O 4 _ ,.$.} ,.,.,.t.d.#.<.1.t.%.<.7.%.8.8.t.<.t.&.X.",
"y.,.O.,.>.O.5.{  . . .{ ~ ` R ~ - +   + + + +   $ $ $ @ $ - $   # + + + # # $ m #.` #.} 8.%.<.*.t.5.8.t.>.%.#.q.8.<.&.&.0.t.7.<.",
"_ O.X.1.O.O.O.1.O./ O.[ { _ X.m $       O $   # + # , 5 y j a 3 + O # #     , X.&.#.<.t.8.*.%.<.4.7.y.8.7.t.7.#.0.0.0.<.7.7.*.*.",
"8.1. .O.X.[ O.O.$.,.{ ,.p.&.<.k $ O $ + @ , g a t v } #.' <.4.v   $   +   + u &.#.<.d.#.7.0.0.t.q.<.7.*.7.} 7.7.0.4.g.M.t.0.0.7.",
" .,.O.[ E O.~ $.O. .{ $.,.R ` t # $   # $ S +.#.X.` *.#.' 0.0.` O O   O + 2 N 0.*.<.7.g.g.0.7.d.0.0.<.t.n.0.<.g.7.0.k.4.7.g.i.k.",
"5. .R { _ X.r.,.$. .[ [ O.&.$.$   O O , x &.4.} k.&.&.<.7.7.X.&.4 +     O # J 7.0.t.0.0.0.d.0.7.0.0.0.0.&.&.0.t.g.t.7.0.0.q.d.*.",
"O.5.v.,.{  .,.5.O.5.$.O.5.X.m # , O # # ) *.7.*.' #.4.7.*.*.#.7.t # O O # # C 0.0.*.7.7.0.7.*.t.t.0.7.t.t.<.7.0.0.0.&.0.<.7.j.0.",
"X.O.>. .R X.O.8.{  .O.5.$.O.x O O # % t *.7.#.7.' X.#.7.4.&.&.i.a + O + # # v i.0.0.0.0.<.&.7.d.*.#.4.k.g.0.0.*.} 7.0.0.q.0.7.<.",
"{ R [ 1.{ R O.1.O.$.O.O._ X.f # + # @ h 4.4.' #.<.*.$.*.4.0.0.X.v O   O O # g 0.<.&.' g.0.' X.*.0.<.7.d.} *.*.) d.t.i.<.d.*.t.0.",
",.>.y./  .{ E X.,.A !  .O.<.h # +   $ L 4.4.&.#.*.` 4.i.4.&.4.<.` 2     O $ v 0.7.<.#.*.*.0.i.7.<.<.' 7.g.d.<.0.7.4.7.7.0.#.j.t.",
"R _ O.{ / { [ / R Q ,.>.5.&.t O #   , &.+.&.&.*.4.` p.j.&.} 4.0.i.t O     # M &.&.} k.0.d.g.*.#.&.7.7.7.g.t.0.0.g.g.0.#.4.t.0.0.",
"5._ / { ~ { R $._ { [ { O. .;   @   y *.&.4.&.O.#.4.X.*.0.4.4.0.7.m O @ O $ v m.7.&.&.0.0.#.*.3.t.0.0.7.4.g.t.7.d.*.0.d.0.<.#.7.",
"6.&.5. .O.5.,.r.` E $.E X.m o $ +   J *.' &.i.&.4.i.} &.' 0.<.&.0.#.q O O 2 v +.7.4.d.w.4.&.q.d.d.0.X.4.&.&.0.0.g.d.M.<.} 7.7.d.",
"&.$.5.0.$.$.E 6.&.~ 7.<.} i $ $ $ 4 *.&.<.*.*.7.&.&.#.*.#.<.q.7.t.&.t # $ + v 0.0.t.0.7.0.q.7.t.0.M.*.<.k.#.#.i.7.7.0.d.g.g.0.*.",
"4.<.4.X.} $.&.<.7.*.4.#.<.- $ $ + v 7.` 3.a.w.g.q.7.0.0.t.<.q.7.4.7.S   # , m *.} *.7.} *.4.d.&.7.0.t.&.&.<.k.7.<.&.7.<.7.c.<.<.",
"6.$._ &.X.6.<.{ 0.7.#.w.} 5 +     x ` <.*.` 0.0.} *.E <.X.0.&.$.0.*.X.4 - $ g q.*.d.*.7.0.q.q.i.<.<.7.7.t.4.7.0.0.0.0.t.t.0.*.X.",
"&.#.*.' <.<.d.X.7.7.7.<.0.h @ = = v r.0.#.} &.} 4.4.4.&.i.*.4.*.0.*.0.t   # t ` &.#.7.0.d.*.0.<.&.t.&.*.<.0.7.<.Z.0.0.#.7.7.7.0.",
"7.7.0.q.4.#.) ` q.7.7.7.X.C e e w F E  .O.K X.+.#.4.&.5.4.&.&.*.0.<.4.M # # O # 5 J 7.4.<.q.7.<.<.4.7.g.0.d.0.*.#.*.0.0.0.7.0.&.",
"*.w.*.#.' d.#.7.t.0.q.0.7.F n z v V F V R O.L } ` &.+.` X.&.<.X.} &.&.+.3 $ - $ + u X.*.7.d.w.7.g.&.d.0.*.0.<.} <.&.7.k.7.7.*.0.",
"*.0.0.#.*.*.7.d.0.0.d.<.t.,.D D B Z Z b U R Y D R F / S S _ K _ ` S ` ` t 4 # 4 - h 0.0.t.9.3.} #.<.9.k.' &.&.} *.q.d.d.*.q.0.*.",
"7.<.<.*.7.&.7.&.<.7.g.d.<.5.:.Z ^ Z Z V U B D T D Y R G L V F ~ ! G ( b G V G F _ $._ _ X.0.%.} #.%.} *.#.g.d.t.0.<.7.0.*.*.&.#.",
"q.*.0.w.*.<.&.&.X.*.a.#.<.X.R | { / / R U U Y Y W U B B ^ D Y G T U Z Y ] Y D W  .~ ,. .>.r. . .>.} ! <.7.} %.0.i.7.#.*.7.*.&.0.",
"&.0.t.d.w.} *.<.<.0.k.t.#.5.O.>.,. . ._ { ! ^ ] ] G ;.o.( / o.R / W ^ W T ] | ] { ! | { O.Q  ._ { 5.O.[ t.g.#.@.0.4.%.<.t.0.7.&.",
"0.*.0.} 7.*.0.i.7.0.*.*.7._ $.5.,.<.,.F O. .,.,.| X.O.~ { O./ >.[ [ 2.;.R 2.;.[ ] | { 5.r. .[  .X.,._ } 2.>.t.0.3.<.7.<.' #.0.&.",
"&.*.7.t.7.<.d.0.7.0.&.*.} 0.q.,.%.<.%.5.y.,._ X._ } 7.y.1.$.>.,.} / O.1.{ ,. .0.r.,.,.5.8.5.{ } $./ O.O.>.<.$...} 0.<.<.3.<.<.<.",
"g.<.#.7.0.g.7.*.&.E 7.7.*.0.*.#.} *.} <.&.t.4.7.$.$.#.4.7.&.,.O. .O.p.5.r.,.<.<.~ $.t.5...) <.<.` <.$.[ >...Q %.#.7.P ) <.7.#.#.",
"g.t.7.&.q.} #.<.*.<.q.q.7.t.<.g.t.0.t.0.7.0.d.7.7.q.0.#.4.+.&.,.E  .5.5.,.e.p.y.4.4.i.` @.t.%.%.7.%.y.s.v.g.<.#.*.w.7.q.&.*.7.*."
};
