/* XPM */
static char *_3bddd3b50a54ce88260a8b745c7ea5cS0P2munOq0nf7TAU[] = {
/* columns rows colors chars-per-pixel */
"64 64 243 2 ",
"   c #0C0402",
".  c #0D0904",
"X  c #0C0C0C",
"o  c #060707",
"O  c #120603",
"+  c #130905",
"@  c #1B0B05",
"#  c #140D0A",
"$  c #1A0E0B",
"%  c #0F100C",
"&  c #14110E",
"*  c #1C120D",
"=  c #0D0E11",
"-  c #060E10",
";  c #0C1213",
":  c #0F1818",
">  c #131313",
",  c #1B1512",
"<  c #1C1A16",
"1  c #14161A",
"2  c #1C1D1A",
"3  c #141A17",
"4  c #100E11",
"5  c #240B02",
"6  c #270E08",
"7  c #23140D",
"8  c #2B150C",
"9  c #271106",
"0  c #36180B",
"q  c #221611",
"w  c #2A1710",
"e  c #231915",
"r  c #2D1B14",
"t  c #241D1A",
"y  c #2C1F18",
"u  c #331D14",
"i  c #3C1E13",
"p  c #341F18",
"a  c #1B211F",
"s  c #2B2117",
"d  c #25211C",
"f  c #2D231A",
"g  c #3C2116",
"h  c #34241B",
"j  c #3A261B",
"k  c #35291D",
"l  c #3A2A1E",
"z  c #362417",
"x  c #1C2723",
"c  c #2C2522",
"v  c #2A2927",
"b  c #362A21",
"n  c #3B2C22",
"m  c #352A27",
"M  c #2C322E",
"N  c #3E3126",
"B  c #3B332D",
"V  c #36322A",
"C  c #3B3934",
"Z  c #343231",
"A  c #432316",
"S  c #422519",
"D  c #442A1E",
"F  c #4C2A1B",
"G  c #4B2716",
"H  c #522D1C",
"J  c #482A18",
"K  c #412E22",
"L  c #452D27",
"P  c #433124",
"I  c #443429",
"U  c #4C3328",
"Y  c #553527",
"T  c #433B35",
"R  c #4C3C35",
"E  c #423C3A",
"W  c #473833",
"Q  c #573D34",
"!  c #4A423D",
"~  c #47423C",
"^  c #57433B",
"/  c #644337",
"(  c #3F3F41",
")  c #3E4945",
"_  c #4C4945",
"`  c #544B46",
"'  c #544D49",
"]  c #574A44",
"[  c #5A524D",
"{  c #54524D",
"}  c #555452",
"|  c #5C5552",
" . c #5C5D5C",
".. c #5D5956",
"X. c #4F5450",
"o. c #785B4D",
"O. c #655E5B",
"+. c #675B55",
"@. c #7A5E52",
"#. c #725E58",
"$. c #69534A",
"%. c #6C635C",
"&. c #65635E",
"*. c #7C6156",
"=. c #72635C",
"-. c #7B635B",
";. c #71695E",
":. c #7B604F",
">. c #615F60",
",. c #6C6562",
"<. c #696865",
"1. c #746A64",
"2. c #736D6B",
"3. c #796E6B",
"4. c #776863",
"5. c #75726D",
"6. c #7C736C",
"7. c #757371",
"8. c #7B7573",
"9. c #7B7A75",
"0. c #7C7D7A",
"q. c #777873",
"w. c #5C615D",
"e. c #82655A",
"r. c #856A5E",
"t. c #866A5B",
"y. c #866E61",
"u. c #8B6D62",
"i. c #806F6A",
"p. c #8C7264",
"a. c #83746C",
"s. c #8D756B",
"d. c #8E796E",
"f. c #857469",
"g. c #91766B",
"h. c #93796E",
"j. c #907366",
"k. c #817673",
"l. c #857A74",
"z. c #8D7A73",
"x. c #837D7B",
"c. c #8C7D79",
"v. c #8B7770",
"b. c #947C73",
"n. c #9A7E72",
"m. c #937E79",
"M. c #987F78",
"N. c #906E65",
"B. c #7F807B",
"V. c #84827E",
"C. c #8C827D",
"Z. c #898176",
"A. c #978176",
"S. c #9D8174",
"D. c #94837B",
"F. c #9B837C",
"G. c #94887F",
"H. c #9E887E",
"J. c #A18474",
"K. c #A2867A",
"L. c #A58A7C",
"P. c #A98D7D",
"I. c #A48976",
"U. c #AB907F",
"Y. c #7C8280",
"T. c #858483",
"R. c #8B8582",
"E. c #8A8986",
"W. c #8B8C8B",
"Q. c #878888",
"!. c #928683",
"~. c #9B8581",
"^. c #948984",
"/. c #9C8A83",
"(. c #948D8A",
"). c #9A8E8A",
"_. c #93918E",
"`. c #9B928D",
"'. c #9E9087",
"]. c #918F90",
"[. c #959492",
"{. c #9C9592",
"}. c #9D9996",
"|. c #9D9C9B",
" X c #969C99",
".X c #8F918F",
"XX c #A28C83",
"oX c #AA8E83",
"OX c #A18A83",
"+X c #AC9284",
"@X c #A4938C",
"#X c #AB958B",
"$X c #AF988D",
"%X c #A69288",
"&X c #B29A8D",
"*X c #B09688",
"=X c #AD9792",
"-X c #A39994",
";X c #AC9B93",
":X c #A49D9B",
">X c #AA9E9B",
",X c #A39791",
"<X c #B29C93",
"1X c #BA9E95",
"2X c #B29E98",
"3X c #B99E98",
"4X c #A5A19E",
"5X c #ABA19C",
"6X c #B3A29C",
"7X c #BBA49B",
"8X c #B5A99F",
"9X c #BBA89F",
"0X c #B9A297",
"qX c #A19FA0",
"wX c #A5A2A1",
"eX c #ACA4A2",
"rX c #ACAAA8",
"tX c #B3A7A2",
"yX c #B4AAA4",
"uX c #BBABA3",
"iX c #B4ABAA",
"pX c #BAAEAA",
"aX c #B5A7A6",
"sX c #BBB1A6",
"dX c #B5B2AD",
"fX c #BDB1AB",
"gX c #BBB4B3",
"hX c #BDB9B6",
"jX c #BEBABA",
"kX c #B6B1B2",
"lX c #B4B1B1",
"zX c #C2B3AB",
"xX c #C2BEBC",
"cX c #C2AEA7",
"vX c #C4C0BF",
"bX c #C6C2C2",
"nX c #CDCBCB",
"mX c #C9C6C5",
"MX c #D8D7D8",
"NX c #D0CFCF",
"BX c #DFE0E2",
"VX c #E3E3E5",
"CX c #EEF3EF",
/* pixels */
"J.J.I.P.U.+X+X+X*X*X*X*X&X&X<X1X1X7X0X7X7X7X0XuX7XuX9XuXcXuXuXzXjXxXmXNXMXVXVXBXMXnXxXgXpXyXyX,X_.T.rX|.R.R.(.a.I I P D P P P P ",
"J.J.I.P.P.+X+X+X#X#X*X*X&X&X<X<X1X0X0X7X7X7XuX9X9X9X9XuXcXsXpXzXhXxXbXnXMXVXVXMXNXmXxXgXpXyXyX,XW.T.rX}.T.R.^.3.I I P P P P P P ",
"J.J.I.I.P.U.+X+X+X#X#X*X&X&X&X<X1X1X0X7X0X7X7X6X9X7XuXuXuXuXfXfXhXxXbXnXNXMXMXMXnXbXhXgXpXyXyX,XW.T.wX[.V.V.R.4.I I P P P P K K ",
"J.J.I.P.P.oX+X+X+X+X#X#X&X&X&X<X0X0X1X7X2X9X#X<XuX8XuXuXuXuXcXsXhXjXvXmXnXMXMXNXmXxXgXgXpXiXyX-XW.T.|.[.V.V.C.4.N I P P P P K K ",
"S.J.I.P.P.oX+X+X+X+X#X$X&X&X<X<X1X1X3X9X3XcXv./.uX7XuXuX8XuXfXsXgXhXxXbXmXnXnXnXbXjXgXfXiXiXyX,XW.E.|._.V.R.R.4.N I P P P P K K ",
"S.J.I.P.P.P.oX+X+X+X#X#X&X&X<X<X1X3X7XcX3XuX#.#.8X8XuXyX8XyXuXsXgXgXhXxXbXmXmXbXjXgXgXpXiXiXtX{.E.E.[.W.V.V.C.1.n P P K P P P K ",
"n.J.I.I.P.P.oX+X+X+X#X#X&X&X<X<X3X7X3X9X6X7X#.I ;X8XyX8X8X8XyXsXdXdXgXhXxXxXxXxXgXgXiXiXtXiXeX`.T.E..XW.0.V.V.1.n P K K P P P K ",
"n.J.K.K.I.P.oX+X+X+X+X#X$X<X<X<X3X3X2X6X6X6X4.r @X6X8X8XyX8X8XsXdXdXkXgXjXjXjXjXkXkXiXiXtXtXeX`.T.E.W.W.B.V.Z.1.n P K D P P P P ",
"J.J.J.K.K.I.P.oX+X+X#X#X$X&X<X<X<X6X<X2X<XuXf.7 D.uX6XyX;X;XfX8XiXdXdXgXhXiXjXkXkXiXiXiXiXyXeX_.R.T.W.W.0.V.Z.%.n N n l P P K P ",
"J.J.J.K.K.I.L.P.oX+X#X#X$X$X<X<X=X<X<X2X<XuXv.7 a.8XtX5Xz.;XuXuXyXyXpXpXiXgXgXgXiXiXiXiXiXeX5X(.R.T.W.W.0.V.x.%.n P P l P P K P ",
"S.S.J.J.K.K.L.L.oXoX+X#X#X$X<X=X;X;X6X<X6XuXD.7 =.8XuX@X] /.tXtXyXyXiX-X:XgXiXkXiXiXeXiXeXeX>X(.E.E.W.W.0.V.x.O.b N P K P P K P ",
"n.J.J.J.J.K.L.L.oXoX+X#X#X$X<X=X<X;X6X6X6X6X/.7 ] tXuX/.k 4.yX6XtXpXiX3.{.gXiXiXiXiXeXeXeXeX:XW.T.E.W.W.0.x.x.+.b N N n I P K K ",
"n.S.J.J.K.K.L.oXoXoXoX#X#X$X<X=X<X;X6X6X5X5X@Xs n 5XuXC.* W tXyXtXfX:XE ).gXiXiXiXiXeXeXeXeX:XE.T.E.Q.W.0.0.V.+.k n n n I P n n ",
"n.S.J.J.K.K.L.oXoXoXoX+X#X$X=X=X;X;X;X6X5X5X>XB , ^.pXk.* e `.yXeXyXR.t ).iXiXeXyXyXeXeXeX4X}.E.T.Q.Q.W.0.0.V.| h n n n P P n n ",
"n.S.S.K.K.K.L.XXoXoXoX+X#X#X=X=X;X;X;X6X5X5X5X! + %.pX6.t * ,.).(.^.| e {.iXiXeXrXrXeXeXeX4X}.R.T.Q.Q.W.0.0.x.| f n n n P P n n ",
"n.S.S.S.K.K.K.L.oXoXoXoX+X#X$X=X;X5X,X6X5X5XtX]   ! eX,.c * T 1.,.O.m t {.iXiXiXeXyXeXeXeX4X}.T.T.Q.Q.W.0.0.x.{ f b n n P P n n ",
"n.S.S.K.K.S.K.K.OXoXoXoXoX#X$X<X;X6X;X2X5X;XyX+.+ f {.,.c , t V Z V < c }.yXyX5XtXeXeXeXeX4X}.V.T.Q.W.W.0.0.9.| f n n n I n n n ",
"n.S.n.F.K.S.K.K.L.OXoXoX%X#X$X=X<X2X;X;X6X>XyX4.* q x.O.d t < < , 2 # < _.rX5XpXeXeX5XeXeX>X{.V.T.W.W.Q.0.q.9.{ f n n n P n n n ",
"n.S.n.S.S.S.L.K.OXOXoXoX%X#X$X=X<X2X2X;X6X6XtXC.e O &...2 2 2 v 3 c o 3 [.rXrX5XeXeX5XeX4X:X{.V.T..XW.Q.q.q.8.' f n n n P n n n ",
"n.n.n.S.F.F.XXXXOXOXoX%X@X#X$X=X<X;X6X;X6X6X6X@Xf   ' { , > Z V.c 2 X.2 q.rX:XeXeXeX5XeX4X}.[.V.E.[.Q.Q.0.q.8._ f n n n I n n n ",
"n.n.n.S.F.F.XXXXL.OXOXoX#X#X#X=X<X;X6X;X2X6X>X5XT   C _ % > w.CXM 2 rXM <.dXeXrXtXeX5XeX>X}._.x.W. XT.W.0.q.5._ f n n n P n n n ",
"h.n.n.F.F.F.XXXXH.OXXXoX%X@X#X=X<X<X2X;X>X>X>X6X!   V ' 3 o C jXx 3 lXM  .rXeX:XeXeX5XeX:X}.(.9.E.|.T.W.0.q.5._ f n b n K n n n ",
"h.n.n.M.F.F.K.OXOXOXOXXXXX@X#X,X=X=X<X;X;X>X>X6X|   d C > 3 Z Y.a 3  XM  .dX:XiXeXeX5X5X:X}.W.5.0.|.Q.W.0.q.5._ s b k n n n n n ",
"h.n.n.n.F.F.K.K./.OXOX/.XXXX@X#X=X=X;X;X;X>X>X6X%.+ d Z % 2 a M : 3 ) 3 <.rXwX>X>XeX5X5X:X}.E.2.2.|.W.W.q.q.5._ s b k k n l b n ",
"p.n.n.n.F.M.F.~.H./.OX/.XXXX@X@X;X#X<X#X6X;X;XtX,.* < v 3 > : - ; : : o q.rX}.eX>XeX5X4X:X{.].<...wXQ.T.q.8.5.~ f k k n l k n k ",
"p.n.n.n.n.M.F.H.H.~.OXOXXXXX@X@X#X;X;X@X6X;X,X6X+., e d > > 3 ; ; : ; ; T.rX:XeX>X5X>X4X:X{.].>.} 4XQ.T.q.5.5.~ f k k n l k n k ",
"y.h.n.n.n.M.F.H.H./.OXOXXXXX@X@X#X;X;X;X6X>X>X,X_ e t < X > 3 ; ; : ; v [.eX:X5X>X5X>X4X:X[.]. .} |.Q.T.0.5.2.~ f b k n l k n k ",
"r.h.h.n.n.M.F.H.H./.OXOXXXXX@X@X#X=X#X;X>X;X>Xl.B e d , & > : ; 1 ; ; ' |.wX:X>X>X>X:X>X:X[..X .} |.E.T.0.5.2.~ f b k n l h n k ",
"e.h.n.h.n.M.F.F.H.H.OX/.XXXX@X@X@X@X,X>X@X5X@X$.c e d , > X X ; 1 = > 7.wX-X5X5X>X>X:X:X:X[.W. .} |.E.T.0.5.2.E f k k l l h n b ",
"*.h.n.h.n.M.F.F.F.H.H././.XXXX@X@X@X;X;X@X>Xl.B f t t , > o X 1 1 = > 0.wX:XeXeX>X>X:X:X:X[.W. .} 4XE.T.8.7.2.T f k k l j k n n ",
"*.h.h.h.n.b.M.M.F.F.H./././.XXXX@X#X,X;X,X@X+.y d e t & & o = 1 1 = = <.wX>XeX>X:X>X:X:X}.[.W. .} wXQ.V.7.5.2.C s k k k j k n n ",
"*.h.h.s.h.b.M.b.F.F.H.H./././.XX@X#X@X@X,X!.R * e e t , & o ; 1 > 1 X } wX>X>X-X:X>X>X:X}._.W. .' wXW.V.7.5.2.C s h k k j k n n ",
"e.y.h.h.s.h.n.n.A.F.F.H.OXOXOXoX@X=XXX;X;X=.V * t , t , # o o > = > = C :X-X5X:X-X>X-X}.}._.T.<.} :X_.V.2.5.<.E s f b n l l l l ",
"e.y.h.h.g.h.n.A.A.A.F.H././.OXXX@X;X@X@X@X+.t * , t t & X X X X o = = v [.wX>XeX-X>X-X}.}._.E.<.O.:X_.V.5.5.<.E s f b n l l l l ",
"e.r.h.h.g.h.n.A.A.A.F.F.H.H.OXXXXX@X;X'.@X` # * & d < X o X = X X > > < 8.eX{.:X-X:X-X}.}.(.E.2.2.4X(.V.5.5.<.T s h b n l l l l ",
"e.e.h.g.h.b.n.M.A.A.F.F.H.H./.XX/./.,X@X).T * # & t , X X o X = X X > X ..eX-X:X-X:X-X}.}.W.E.7.9.:X(.T.7.5.,.C f h b n l n l l ",
"r.e.h.g.h.b.b.M.A.A.F.F.F.H./.XX@XXX@X'.l.b e + & < , , X o X X = X 4 X E }.5X-X-X:X-X}.}.E.E.7.R.:X_.E.7.5.,.C f k n n n n l l ",
"u.e.h.s.n.b.h.M.M.M.F.F.F.F.~.XX/.'.).,X1.e * O , , & # X X = o > > X X c V.5X{.-X-X}.}.{.E.E.8.E.}._.E.8.5.,.C f k b n n n l l ",
"y.*.h.s.n.h.s.b.M.M.M.F.F.F.H.OX/.'./.@X+.* + e C < X o o ; ; - 2 v o X & ,.eX:X}.}.{.}.}.R.R.8.R.{.{.(.9.5.,.B f k b n n n l l ",
"y.*.n.s.n.h.s.b.b.b.M.F.F.F.F.~./.'.!./.` + O T ,.v & X o X X = ( } > #   ` {.-X}.{.{.}.}.R.R.8.R._.{._.9.5.,.B f k b n n n l l ",
"u.@.s.s.h.s.s.b.z.b.M.A.F.F.~.~./.~.'.G.B # * O.E.C   X o 2 2 v >.x.M . X c R.:X-X`.`.}.}.E.T.x.R.(.{.(.9.9.%.B h k b l l l l z ",
"u.*.s.g.h.s.s.b.z.b.M.M.M.F.~.~./.D./.l.y + B C.}._ . , X M C  .T.[...# + , 2.-X-X{.-X{.{.R.T.x.^.(.{.(.9.8.%.V h h b l l l l z ",
"p.*.p.g.h.s.s.h.z.b.b.b.M.F.F.~.G.D./.l.$ # | }.:X{   & % _ <.T.[.qXx.v . . ' {.`.{.-X{.`.R.V.x.^.`._.^.9.6.,.V f h b l l l l z ",
"j.e.y.g.s.s.s.d.z.b.b.b.M.A.F.F.D.!./.3.O e 3.`.}.&.. . & <.W.[.[.}.(.| $   B ^.`.`.}.`.{.R.V.x.R.{.`.^.l.6.1.V f h b l l l l z ",
"g.e.r.g.s.p.p.s.z.b.b.b.b.M.F.F.D./.!.+.  c !.).{.5.#   + <.[.[.[.{.[.V.c   t 1.(.`.{.`.{.^.x.x.!.`.`.^.9.6.1.b h h b l l l l z ",
"j.e.e.g.p.p.p.s.d.b.b.b.b.M.A.F.z././.^   B `.(._.8., .   _ E.].{.[.{.[.` + $ _ l.(.{.).{.!.Z.x.!.`.`.^.l.6.;.b h k b l l l k z ",
"j.e.*.g.p.p.p.s.d.h.b.z.b.b.A.A.z./.D.n O T `.!.{.x.< # . E T.].[._.(.{.6.t   b [ x.{.(.`.^.C.x.~./.`.!.l.Z.1.n h k b l l l k z ",
"p.e.@.j.p.p.s.g.s.d.d.z.b.b.M.A.D.~.a.7   T `.^.(.l., .   C x.Q.(.{.(.{.^.C   e V 1.`.(.`.^.V.l.!.!.).G.Z.G.1.N h k b j j l z z ",
"p.t.:.p.p.p.p.p.s.s.d.d.d.z.b.b.m.D.k.$ O ] ).C.(.1.q . . c 8.(.(.(.{.`.`.'   + $ ,.{.`.`.^.V.l.b././.!.Z.C.=.N h k l k l j h k ",
"p.t.o.p.p.p.p.p.p.s.s.d.d.z.b.b.D.D.c.h y %.).!.(.,., . + m 7.E._.E.{.(.{.,.e # $ 1.{.).).^.V.l.D.!.!.C.l.Z.%.n h k l k l j h k ",
"p.t.o.t.p.p.p.p.f.p.s.d.z.z.z.b.m.m.~.] ] z.).D.(.,., + e E 2.x.(.R.{.^.`.x.T f c 6.`.^.^.^.C.l.D.G.D.C.l.l.%.b h k j k j j h k ",
"p.p.o.t.t.p.y.p.p.s.s.d.d.z.z.b.z.c.~.3.4.~.~.c.(.3.B c T | 8.8.(.^.`.^.(.!.%.[ ` C.`.R.^.^.C.C.D.F.D.D.l.l.%.b h k j h j k h h ",
"u.j.o.t.r.y.r.p.p.s.s.s.s.v.z.z.z.c.m.~.C.C.!.C.R.x.| ` +.2.x.8.R.(.^.(.^.!.C.8.6.^.^.R.^.!.C.c.z./.D.D.l.l.%.k h b j h k k h h ",
"t.p.@.e.r.r.r.y.f.p.s.s.s.v.z.z.c.c.l.!.!.c.^.!.c.!.8.2.8.x.9.7.^.(.R.`.).(.{.^.).`.^.).@X).).D.z./.D.D.a.l.=.k h k k z k h h h ",
"y.p.@.@.p.y.y.y.f.f.s.s.v.v.z.z.c.c.l.c.C.k.R.R.c.(.R.V.R.R.8.7.R.(.R.).(.(.`.^.`./.!./.!.~.!.D.s./.D.C.6.a.%.h h k k h h h h h ",
"u.p.@.@.g.p.p.y.f.s.s.z.z.z.z.z.c.c.c.l.c.l.x.l.k.x.x.x.x.8.,.<.2.k.8.l.3.k.8.6.k.3.4.1.#.=.3.=.a./.G.D.6.a.%.s h k k h h h h h ",
"N.u.r.$.e.*.*.*.-.-.4.4.-.-.4.4.,.,.,.,.,.%.O.O.O.O.O.....| ' _ ' [ [ [ ] ' [ ` ' ! ! ! W W R ^ i.D./.D.a.l.=.s h h k h h h z h ",
"u.u.e.^ Q U U Q U Q R W I L L L B B m m c c c c t c d t t t < , e e e e e q q q e * * 7 7 7 7 w =.z.D.b.l.D.6.k h h h f u h h h ",
"u.u.@.U g 0 u g p p p u r w w r t q , $ $ $ $ $ # & # . # , & # + # # # $ $ + $ $ $ + @ @ @ @ @ ^ +.=.#.=.l.3.h u u r r r h h u ",
"e.o./ 0 5 5 5 5 5 5 5 5 5 6 6 6 $ +             + +     $ , & # $ q 7 q y w 7 r r r r w u u r r r n K n R =.#.h r r w w r r r r ",
"/ Q H 0 0 0 0 0 8 8 8 8 0 u u u 7 $ @ + + + + + # + + , t t , , 7 e q r k z u j p g g u g g u i g D j u k R R y r w 8 w r r r r ",
"0 0 i 0 0 A G A i i i i g g g i r 7 7 7 * $ + + + + # t c y q e r p h z K K D L A S S A S A A S D D S 0 9 8 8 @ w 8 8 w r r r r ",
"A A G G G H F G A A G G F F S g r r r r y q $ $ + $ e b n y w r r p z g D L U U G G G G G G G G F F F S u u u w 8 8 8 r r r r u ",
"H G G H H H H G G G G F F F A i u u h b k y e q @ q h n n p r h u p g S D Y Y Y Y H H Y H H H G Y F F F S g u 8 7 7 w r r r r u "
};
