/* XPM */
static char *_4b1a48a0a50452af1e22468a2165c81FJmC9sy7MGgsduiZ[] = {
/* columns rows colors chars-per-pixel */
"64 63 231 2 ",
"   c #060606",
".  c #090705",
"X  c #0A0906",
"o  c #070709",
"O  c #090708",
"+  c #07080A",
"@  c #0B0B0A",
"#  c #120E0B",
"$  c #0E100D",
"%  c #13120E",
"&  c #1B180F",
"*  c #0F0F11",
"=  c #0F1111",
"-  c #141412",
";  c #191613",
":  c #1B1915",
">  c #1D1C19",
",  c #171815",
"<  c #211E1B",
"1  c #1F201C",
"2  c #23221E",
"3  c #292D1C",
"4  c #211F21",
"5  c #252522",
"6  c #292623",
"7  c #262924",
"8  c #2B2A25",
"9  c #2D2D2A",
"0  c #232929",
"q  c #322D26",
"w  c #312E2B",
"e  c #2F302C",
"r  c #33322D",
"t  c #3A352C",
"y  c #3B3A2D",
"u  c #323226",
"i  c #2E2E31",
"p  c #2F3230",
"a  c #353532",
"s  c #393634",
"d  c #363834",
"f  c #3B3A35",
"g  c #363639",
"h  c #3C3C3A",
"j  c #34393A",
"k  c #322F31",
"l  c #423D34",
"z  c #413E3B",
"x  c #3E403B",
"c  c #3F422F",
"v  c #434236",
"b  c #43423D",
"n  c #4B453C",
"m  c #494639",
"M  c #524C3C",
"N  c #5A523F",
"B  c #76583D",
"V  c #6B4F38",
"C  c #3E3E40",
"Z  c #403E41",
"A  c #3F4140",
"S  c #444442",
"D  c #4A4643",
"F  c #464944",
"G  c #4B4A45",
"H  c #4C4D4A",
"J  c #454749",
"K  c #514D44",
"L  c #524E4B",
"P  c #4F5049",
"I  c #535244",
"U  c #53524C",
"Y  c #5A554C",
"T  c #5C594C",
"R  c #5A5745",
"E  c #514F50",
"W  c #545452",
"Q  c #5A5652",
"!  c #565953",
"~  c #5B5A55",
"^  c #5C5B5A",
"/  c #535959",
"(  c #4F5051",
")  c #655B4A",
"_  c #7A5C44",
"`  c #615E5C",
"'  c #625D53",
"]  c #5E605C",
"[  c #5E6053",
"{  c #7C6245",
"}  c #646253",
"|  c #63625D",
" . c #6C6B5B",
".. c #696558",
"X. c #756B59",
"o. c #727057",
"O. c #615F60",
"+. c #656462",
"@. c #696664",
"#. c #6B6A65",
"$. c #6C6C6A",
"%. c #676865",
"&. c #726E68",
"*. c #6E716C",
"=. c #767363",
"-. c #74736D",
";. c #7A766A",
":. c #7C7B6C",
">. c #7B7763",
",. c #757572",
"<. c #7A7672",
"1. c #7B7B75",
"2. c #7C7C79",
"3. c #716F74",
"4. c #815E40",
"5. c #866649",
"6. c #89765B",
"7. c #8F745B",
"8. c #857B68",
"9. c #837E7A",
"0. c #837A72",
"q. c #927566",
"w. c #7F807B",
"e. c #87836A",
"r. c #96866A",
"t. c #8A8273",
"y. c #83837C",
"u. c #8C8B7D",
"i. c #898778",
"p. c #948A79",
"a. c #9B937B",
"s. c #999479",
"d. c #93906F",
"f. c #A3957C",
"g. c #A6997A",
"h. c #A99771",
"j. c #A4A17C",
"k. c #93815D",
"l. c #858582",
"z. c #8C8B85",
"x. c #8A8A85",
"c. c #958E84",
"v. c #8C9385",
"b. c #949284",
"n. c #9B9583",
"m. c #9C9A85",
"M. c #94948C",
"N. c #9B958A",
"B. c #9D9B8B",
"V. c #959B8D",
"C. c #9A9B94",
"Z. c #989B96",
"A. c #A39D8B",
"S. c #A79986",
"D. c #A49C93",
"F. c #A49D95",
"G. c #B19E80",
"H. c #9CA396",
"J. c #9FA285",
"K. c #A4A28B",
"L. c #A8A689",
"P. c #B7A98B",
"I. c #A4A594",
"U. c #ABA592",
"Y. c #A4A59C",
"T. c #A4AA9C",
"R. c #ADAC9B",
"E. c #AAA897",
"W. c #B3AC93",
"Q. c #B4AC9C",
"!. c #B7A897",
"~. c #B9B498",
"^. c #B4B18D",
"/. c #9EA3A1",
"(. c #ACACA3",
"). c #A9AAA8",
"_. c #B2ADA5",
"`. c #ACB1A9",
"'. c #B3B3AC",
"]. c #BCB6AA",
"[. c #B9B7A8",
"{. c #BBBBB3",
"}. c #B9BAB4",
"|. c #C4B295",
" X c #C2BBAC",
".X c #C9BBA7",
"XX c #D6B9AB",
"oX c #C3BDB3",
"OX c #D1B3A7",
"+X c #BDC1B5",
"@X c #C9C4AB",
"#X c #D4C9AD",
"$X c #C5C2B6",
"%X c #CBC4B3",
"&X c #C4C4BA",
"*X c #CBC6BB",
"=X c #CCCBBD",
"-X c #C8C9B6",
";X c #D5CBB9",
":X c #DBD4B9",
">X c #E4D9BB",
",X c #E7C7B8",
"<X c #DED2AF",
"1X c #CDCCC2",
"2X c #C8C8C3",
"3X c #D2CDC4",
"4X c #D5CFC9",
"5X c #CFD1C8",
"6X c #D4D2C6",
"7X c #D5D4CA",
"8X c #DAD5CB",
"9X c #D5D9CC",
"0X c #DBD9CD",
"qX c #DCD9C6",
"wX c #D5D6D1",
"eX c #D6D9D2",
"rX c #DDDDD5",
"tX c #DADBD3",
"yX c #DDDED9",
"uX c #DCDBD9",
"iX c #DAD6D2",
"pX c #E5D9C6",
"aX c #E1DCD3",
"sX c #DEE2DB",
"dX c #DDE0D7",
"fX c #E8E2C5",
"gX c #E3E1D4",
"hX c #E3E3DB",
"jX c #EBEADB",
"kX c #EBECE0",
"lX c #F2EDE7",
/* pixels */
"v.v.&X&X6X6X7XwXuXuXsXsXsXeXsXeXuXeXeXeXeXeXtXtXtX7XrXtX9XrXeXtXtXrXeXtXrXdXyXyXyXeXyXyXuXuXiXwX7X9X7X1X1X1X2X2XoX&X].].].].*X=X",
"u.u.[.&X&X2X1XeX5XeXeXeXsXsXeXrXeXuXyXwX9XrXrX9XtX9XtXeXeXrXeXrXrXrXrXrXdXdXdXyXyXeXsXyXyXuXuXrXtX8X9XtX6X5X6X2X1X$X*XoX].oX=X6X",
"i.z.[.=X&X1X2X2X7X5X5X9XeXdXyXrXeXeXrXuXrXtXtXtX0X0X9X9XtXtXeXeXtXeXeXyXrXdXhXdXeXyXkXhXhXyXrXrX8X8X6XrX9X7X6X6X3X1X=X*X$X$XaXhX",
"u.u.(.&X$X*X6X8X0XrXsXrXtX1XtX9XeXwXeXrXtX9X9XtX9XtX9X7XeXtX9X9XeXwXuXyXtXrXhXdXtXhXgXrXtXtXiXiXiXhXrXrXwXeX9X9X8X6X3X1X&X-X7XT.",
"p.i.R.=XoXc.u.u.u.V.V.H.=XaXiXgXyXsXdXrXdXhXhXkXeXrX9X1X5X0XtXrXyXwXwXeXeXyXyXtX7XhXtXgX0X0X8X8XhX8XiXrXrXgX9X9X7X6X7X=X6X&XI.C.",
"n.p.R.-X X0.u.N.V.v.v.b.F.3XY.y.M.Z.H.).'.`.'.}.+X{.}.T.(.+X&X1X2X}.'.{.5XeXeX9X9XhXtXgX0X0X0X0X8XaXlXhX&X1XyXtX6X6X6X1X0X+XV.[.",
"n.a.R.$X%Xp.Q.$X+X'.+X2XF. XM.! U W ~ #.-.#.%.1.x.2.y.-.1.v.z.M.Z.x.2.l.Z.`.}.{.2X&X{.{.oX$X8X0XoX3X'.=.D | }.eXtX7X7X0X1X=X(.V.",
"S.n.I.=X;Xp.D.].T.T.T.+XD.E.Y.+.$.*.#.+.+.] +.-.+.U | | +.-.+.#.2.$.! W +.1.z.Z.'.'.}.{.*X&XaX0X*XD.L l G n C.gX0X7X0X6X6X9XH.+X",
"S.n.R.-X;XS.S._.y.H.H.{.N.z.y.! ] ~ H h d a h S J H S S W #.~ ^ $.^ h h h S H ! $.,.<.C._.oXaX3Xz.G K G G v M.gXtX0X0X9X7X9XT.H.",
"A.A.I.-X;XF.S.].x.v.v.T.y.Q G x f h J g e p g g C g a g / +.W ! ~ U f a a g f a r h f S L @.<.| K Y G K G v (.rX7X7X0X0X0X0X[.T.",
"A.U.I.=X;XQ.t.].V.V.x.y.~ z 8 f b h z b h a i a a a g h ] ^ ~ ~ H b r a a a a a a s f z s q w a l K n l n U [.hX6X7X8X7X9X9X&XT.",
"U.U.U.%X;X X0.%X[.Y.v.G f r 8 9 u t f H S S a a i a g h ~ ] ^ H b r 8 9 9 a g J L W S r q q q q q u b G G | 1XtX8X0X7X7X7X6X=XI.",
"U.U.E.%X;X.Xt.n.t. .I n U | | [ G t 8 b F f b g a a j A ( ] ] F h a 9 8 8 a h b L U f t t u t q q u l G n 2.tX6X8X8X8X8X0X6X1XC.",
"W.W.W.%X#X;X%XQ.U.p.=.[.].V.M.M.c.;.v 8 D z S J G g a F ~ $.%.^ H g r 8 9 a h b b b q t K } X.' K l u b U `.gXtX8X8X6X6X8X6X6XR.",
"W.W.W.#X;X;X.X].~.n.B.].{.-.1.u.n.Q.t.l v K G G ! S a G *.2.%.+.! g 9 9 r r a h D t v ;.B.K.A.n.N.9.U n ! }.rX6X8X8X4X6X6X6X7X].",
"~.W.P..X>X#XS.!.!.S.p.t.T F h  .n.S.n.=.v U G F W W W ~ ,.-.^ ,.H g g a a a f a D K :.K.I.K.m.B.I.C.Y.~ | 2XeX9X7X8X6X8X8X6X6XoX",
"~.|.P..XpX:XW..XG.d.a.;.S a 0 v s.f.r.X.m ~ L ! ^ ,.2.l.1.W ,.$.J F b s a a a b G T n.U.K.m.} K i.C.Y.(.y.iXrXtXtX8X7X6X8X6X6X=X",
"P.r.6.|.pX;XW.W.g.r.a.T h j j F g.P.8.) l <.^ Q ,.y.z.l.2.2.l.@.] ! H x b S z G L T s.U.m.t.n b Y b.N.Y.'.rXrXrXiX0X7X7X7X6X3X=X",
"r.6.6.g.>X>X.X~.g.g.a.} 8 d j m W.g.8.) n z.@.! x.M.Z.M.l.x.,.~ J S G F H S z ~ Q  .i.~.K.e.v v I u.B.B.Y.{.iXiX0X0X8X7X6X6X3X3X",
"q.r.k.h.>X:XQ.Q.S.s.a.e.3 3 9 :.a.s.8.M &.z.f H l.M.9.1.1.2.$.! h f S F G z s Q &.T >.K.K.s.m y M e.A.A.b.b.0XaX0X0X8X8X6X6X3X3X",
"r.r.7.h.>X;XQ.oXa.S.s.s.o.c -._.s.f.N I c.Q s @.,.%.] -.y.$.+.~ H b b b G D f z #.M R s.L.m.=.y ) d.n.B.u.&.].8X0X0X8X8X7X7X4X4X",
"X.5.7.|.>X#XN.oXA.8.g.j.K.I.[.].[.8...c.' q @.` H G ,.z.M.<.$.$.~ H h s z L L F l } R o.L.U.K.t.i.s.B.u.;.} u.aX0X8X8X8X7X7X6X4X",
"S.7.{ h.#XA.=.(.E.X.>.d.K.U.A.u.) R X.' f F H L S ,.Z.z.z.y.9.<.@.^ H S s z Q ` n l ) M R t.b.B.B.b.B.:.' T } ].8X8X8X8X7X7X6X4X",
"#XXX{ h.:X8.;.l.M.N.8.>.e.} K t v } I n h z ^ z 2.'.F.l.z.#.` +.~ ^ ` +.z w G Q n y l m l u m }  .:.} n K K ~ b.8X8X6X6X7X6X6X3X",
"OXOX|.OX~.0.$.@.&...M ) I n n n I I U n G W H ~ Z.`.F.l.9.&.~ Q G L W Q ` S w Q G l t q t s q q u y y h b L L -.*X7X6X6X8X6X3X6X",
"OXOXXXOXS.0.,.3.^ L Y ' U K K M Y | | ! <.-.U 2.l.l.,.+.Q G b F b z F H L D f z S D F r 9 s s u u t r f h G H <.{.6X6X6X6X6X3X6X",
"XXXX,XXX!.9.,.2.9.,.| Q ^ L G K -.1.^ 2.2.U +.+.S z G W F a 9 8 s s f s f S z r f s z S a 8 8 a u d a d h J G ,.&X7X6X7X6X6X1X1X",
"7.7.7.q.!.9.#.,.@.` @.H H S G <.-.` -.#.2.^ +.s < ; 6 h f 9 6 6 q u < - < w r s z a g Z S S f 9 9 a a d h S H -.2X7X7X6X6X1X1X1X",
"V V V ) Q.F.-.$.$.Q D H J J +.$.^ ^ -.l.-.W @.z : # % 2 8 2 2 2 8 < @ O : 6 8 t t r k i i h h 8 8 9 9 a g S W -.&X6X6X6X7X1X3X1X",
"_ B 5.V U.Q.@.L Q D h g C / ^ +.$.+.E 2.<.| b s : - % > 6 2 : : 6 : - : , > 8 8 t a a a 9 9 a s 8 9 8 9 a S W #.(.6X7X6X8X3X4X1X",
"_ B 5.B G. X=.Q z D h h ( / H W ~ ( ^ | ,.| F 6 6 < 4 6 6 5 > > 8 8 4 : - : 8 u t d a a a a t 8 u u 9 r s F Q ! M.6X8X6X=X4X4X3X",
"B _ B B g..X;.U G z b d J / g x C ^ W ~ ,.+.L S f w r r 6 > > : 6 a 8 > 5 6 8 8 8 a a f a 9 u u u 8 u a f F W H :.6X6X3X X3X3X4X",
"4._ _ _ f.!.t.| n s d a S H g g S J U | @.| W H h b 9 f 2 > : : 6 8 < 5 8 6 6 8 u r a a a a t u t a a a h G H H #.[.8X=X].$X3X3X",
"5.5._ _ r.A.0.` F 9 r h b F S S W b H +.| H S S h f 9 r 2 > : : 2 6 2 2 6 2 2 6 9 q r r a s a a r s f g g j g x U (.=X3X3X=XoX*X",
"{ V V 6.S.D...G r r f h G H J W ` J H ~ H b b S f r 9 8 6 2 : : > > 2 2 2 2 < 2 8 9 9 r a f f f w a f h f a a h P (.3X=X%X*X*X;X",
"h.P..X:X:XR.=.#.| W ! W G G D b h s S L S f s f a 8 8 6 2 2 ; : > : 2 < > 2 < 2 6 8 9 9 q r s f s f f a a a a h W Y.&X].oX%X%X.X",
"fX>X>X;X XD.-.~ W h h S b z z z S J J S a 5 < 8 9 6 < : ; < # : > ; : : : 2 < 2 2 6 8 8 8 9 r s f f a 8 6 8 8 9 z M._.R. XQ.f.e.",
".X^.@X@XR.b.-.D d r r f h s r f s G H S f 9 2 6 2 > > > : < X ; < : : - ; > : > 2 6 8 8 8 9 r s g z s 8 2 6 8 8 f 9.(.*XQ.p.r.L.",
"~.L.~.~.m.1.$.! d 9 h S a a f 8 z G b w 6 6 2 > : : > > 2 < # ; < < ; - : : : : > 2 6 8 8 9 r a h S z a t t d d Z @.y.N.b.W.~.j.",
"@X:X:X@Xn.-.] ~ b r r S G b z f S s r 9 6 < > > > : : - < % X # : 2 ; ; : ; ; : ; : < 2 6 9 r a Z C f a t t r a S ^ ,.b.N.K.^.^.",
"fXfXpX Xu.| ~ U h d x ~ H f a a a a r 8 2 2 < : > > : ; % X X X # % : > < : : : > > > > 2 6 8 r a C f 7 2 8 r e a H 2.M.I.[.~.~.",
">X:X@Xn. .~ Q H W h x ! S 9 9 8 8 s 2 6 8 - : > : : : - # # # # # - ; : < < > : : 2 6 2 2 6 8 6 9 a 9 7 u 6 2 p a H z.`.Y.K.L.L.",
"#X.XU.t.} Q Q G S b f b h 8 e e a 9 8 8 6 : : 2 < 2 2 : ; ; : : < < < : : < < > : < 2 2 6 8 9 w g 9 7 1 > 9 d e a h %.C.(.T.I.J.",
"#X.XU.t.' K G b a r a b b h H f q 6 8 2 ; > > < > 2 2 > : < < < 6 8 6 < : < < < < : : 2 6 6 8 a a g f e 5 1 6 e d x S *.V.H.T.I.",
">X;XW.>.~ ~ H a g g a b W F b f > 8 > : : ; < 2 - : > : : < < < 2 6 6 < : < < 2 2 : > 6 6 6 6 9 8 8 9 a a 9 6 7 7 a x *.Z.H.H.H.",
"fX@XA.:.' G b S F S G H S h f 6 2 2 2 2 > : : > % - % % % % % % % : : ; # ; : < < < 2 2 6 8 8 8 8 < 5 8 6 9 d a e 9 d $.Z./.`.`.",
":XqX@Xt.! G H H S P P b h z t r 8 - 8 6 : > % % # @ X X X X X . X # % # # # ; : < 2 2 2 2 6 6 6 a q > < k 9 6 a d e x ,.Z./.).).",
"fX-XI.:.[ P F F F h g d a b s f 8 6 6 2 2 : - % % @ @ % % % # # # % ; % # # % ; < < 6 6 2 - % - 6 s r 5 < 8 9 9 h h h $.).).Z.Z.",
"#X@Xm. .P F F F g a 9 r z b q 9 r r 8 6 > : % % % % % - ; & - % % ; : - # @ % : : < 2 5 2 : - % - 8 r f 9 6 a r 8 d v 1.Z.M.Z.C.",
":X~.m.o.n n x h a 9 8 9 s a 8 e a f 9 2 : > : - % % - ; : & % % % ; : - % % - : < < > > > : - % % > 8 9 r r 9 r f 9 P y.l.M.M.Y.",
"@XW.m. .v v x d a 9 9 w r 9 9 f h h 9 2 : > : ; ; ; ; ; - - # # % - ; ; - % - : > > , - : : - @ % @ : 6 8 r a r s x %.Y.z.x.C.Y.",
"#X~.e.R v h x a i 9 8 8 8 6 9 h b f 9 8 > : % ; : : : ; - - % % % - ; : ; - % % - - % @ - , - @ @ : $ : 6 6 e a 9 h ,.&XtX&XV.H.",
"@XL.o.I n f d 9 9 9 6 6 6 8 e d f s 9 9 2 : % - - ; : > : : ; : ; : : : - % % # @ - @ X @ - - - @ $ % 1 > > e 8 t h -.(.7XjXgX{.",
"L.K.B.:.G s r 9 p 9 6 5 6 8 r e q a q 9 2 > - % % % : < 2 < : : 2 > : - % # @ @ @ # @ X X @ - , @ % - - > 1 > 7 9 h D y.1XtXjXkX",
"L.@X@Xi.G a r 9 7 6 > > < 2 8 6 9 e 8 8 6 < - % @ @ - : > : ; : > : - % @ X X X @ @ X X X @ = , - @ $ $ $ > 1 2 6 8 s U D.0XgXjX",
"@X;Xn.T v r a 7 6 5 > 2 2 2 8 7 9 8 6 8 6 > @ # X X @ % % % % - - - % @ X X     @ @ X X @ @ @ @ $ , @ @ - - 1 > > 8 s v ;.*XgXgX",
":XQ.=.P h r 9 4 7 > : > 2 6 2 2 2 2 2 2 > , @ X X X X @ @ @ @ X X X X X X       X @ @ @ X X @ @ $ $ @ @ @ $ , 1 > 2 8 v  .[.0XjX",
"%XU.=.G x h 9 1 6 > > 2 2 > : , : : : : , - @ X O O X X X X X   X X X X X       X @ @ X X X + + @ @ @ @ @ $ - : : 1 6 t Y b.*XgX",
" Xa...m n h 8 9 > : : 2 > : - - % % - % $ @ X X X X X X X O     X X   X         + X X X X X + X X @ @ $ - = = - > 1 2 8 n =.Q.=X",
"Q.u. .U G h 6 8 : , : > : - - - % % % % @ X X X X X X X O O O O                     X   X X + X @ @ @ @ - - = - > 1 2 6 f Y c._.",
"Q.A.;.~ D a 9 5 > : : : - % % % % % $ $ @ X X X + + + + + +                             + + + X @ @ X X - - - - , > 6 6 u l =.D.",
"[.n...U b a p 7 > : : - % % % % $ @ @ @ X X X X + + + + + +                           + + X X X @ X O X * * * - , > 2 8 q t Y :.",
"Q.:.I I G h 9 5 : : : % @ % - @ @ @ @ @ @ X X X + + + + X X + +                   + + X + + + X X X X X @ * * = , : 2 8 u y n } "
};
