/* XPM */
static char *cbb124b87e124d32cf36196025ca82c2fvwCF1uZglLER74m[] = {
/* columns rows colors chars-per-pixel */
"64 64 149 2 ",
"   c #030100",
".  c #090101",
"X  c #0A0A06",
"o  c #0D0A09",
"O  c #100C0B",
"+  c #181614",
"@  c #1A1816",
"#  c #1E1E1F",
"$  c #231E1D",
"%  c #1F2123",
"&  c #242425",
"*  c #292525",
"=  c #2B2827",
"-  c #252728",
";  c #292729",
":  c #27292B",
">  c #2B2A2A",
",  c #312D2E",
"<  c #32302F",
"1  c #312F30",
"2  c #2F3133",
"3  c #353232",
"4  c #3A3434",
"5  c #393936",
"6  c #363538",
"7  c #37393B",
"8  c #3D3A39",
"9  c #413B3D",
"0  c #43423E",
"q  c #423F40",
"w  c #454342",
"e  c #4B4745",
"r  c #474843",
"t  c #4B4947",
"y  c #4D4A49",
"u  c #524E4C",
"i  c #54504F",
"p  c #545353",
"a  c #595655",
"s  c #575855",
"d  c #575958",
"f  c #5D5B5B",
"g  c #625D5D",
"h  c #5F605D",
"j  c #5F6161",
"k  c #646262",
"l  c #6A6564",
"z  c #6B6867",
"x  c #696768",
"c  c #6D6B6A",
"v  c #716C6C",
"b  c #6F726F",
"n  c #72716F",
"m  c #716F70",
"M  c #747271",
"N  c #797575",
"B  c #797976",
"V  c #7E7779",
"C  c #7D7C7A",
"Z  c #817D7C",
"A  c #82827E",
"S  c #858481",
"D  c #8A8684",
"F  c #8B8A86",
"G  c #8D8D8A",
"H  c #928D8B",
"J  c #8F908C",
"K  c #93928E",
"L  c #959591",
"P  c #999693",
"I  c #979893",
"U  c #9B9A96",
"Y  c #9E9C99",
"T  c #A09997",
"R  c #A29D9A",
"E  c #A89E9D",
"W  c #A4A19E",
"Q  c #A9A19F",
"!  c #A5A4A2",
"~  c #ACA5A3",
"^  c #ADA9A6",
"/  c #ADABA9",
"(  c #B1A9A7",
")  c #B5ADAB",
"_  c #B4B0AF",
"`  c #BAB1AF",
"'  c #B9AFB0",
"]  c #B6B2B1",
"[  c #BCB4B3",
"{  c #BEB9B6",
"}  c #BEB9B8",
"|  c #C2B7B6",
" . c #C0B7B5",
".. c #C5B7B7",
"X. c #C0B7B5",
"o. c #C1B8B6",
"O. c #C3B8B7",
"+. c #C2B9B7",
"@. c #C1B9B7",
"#. c #C4B6B8",
"$. c #C1B7B8",
"%. c #C0B9B9",
"&. c #C3B8B9",
"*. c #C1BBB9",
"=. c #C3BAB9",
"-. c #C1BBBB",
";. c #C5B9B9",
":. c #C6B9B9",
">. c #C5B9BB",
",. c #C6B8BB",
"<. c #C4BBBA",
"1. c #C6BABA",
"2. c #C7BABA",
"3. c #C3BCBA",
"4. c #C5BCBB",
"5. c #C7BCBB",
"6. c #C4BBBC",
"7. c #C1BDBC",
"8. c #C2BEBD",
"9. c #C5BCBD",
"0. c #C5BEBC",
"q. c #C7BEBC",
"w. c #C7BDBE",
"e. c #C5BEBE",
"r. c #C6BFBF",
"t. c #C4BBBA",
"y. c #C8B8B9",
"u. c #C9BBBB",
"i. c #C8BDBC",
"p. c #CABCBC",
"a. c #C8BFBD",
"s. c #C8BEBF",
"d. c #C8BCBE",
"f. c #C8BFBE",
"g. c #C6C0BD",
"h. c #C9C0BE",
"j. c #C9C0BE",
"k. c #CABFC0",
"l. c #C7C0C0",
"z. c #C6C2C1",
"x. c #C9C0C0",
"c. c #CAC1C0",
"v. c #CBC2C1",
"b. c #CCC3C2",
"n. c #C8C4C3",
"m. c #CCC3C4",
"M. c #CFC5C6",
"N. c #CAC2C1",
"B. c #DCD7D7",
/* pixels */
". . . . .               . . . . . . . . . . . . . .                                             . . . .                         ",
") ) ) ) ) ) ) )  . .o.o.o.o.=.=.=.=.<.<.4.4.q.4.4.<.<.<.<.<.<.<.<.<.<.=.o.o.o.o. . . .[ [ [ [ [ ( ( ( ( ~ ~ ~ ~ W W W W Y Y Y Y ",
"^ ^ ( ( ( ) ) ) [ [ [ [  . .o.o.o.o.o.o.=.=.4.4.4.4.q.q.a.a.q.q.q.q.q.4.<.=.o.o. .[ [ [ [ ` ` ) ) ) ) ) ^ ^ ! ! ! W W W U U U U ",
") ) ) ) [ [ [ [ [ [ [ [ [ [  . . . .o.o.o.o.<.4.q.a.h.h.h.h.h.h.h.h.h.a.q.4.4.4.[ [ [ [ [ ` ) ) ) ) ) ( ~ ~ ! ! R R Y Y R R R R ",
") ) ) ) ) ` ` ` ` ` [ [ [ [  . .o.o.=.=.<.<.q.q.q.q.a.a.h.h.a.a.q.q.4.4.4.4.4.o.[ [ ` ` ` ) ) ) ) ( ( ( ~ ~ ! ! R R R Y Y U U U ",
") ) ) ) ) ` ` ` ` ` [ [ [ [  . .o.o.=.=.<.<.q.q.q.q.a.a.h.h.a.a.q.q.4.4.4.4.=.[ [ [ [ ` ` ) ) ) ) ( ( ( ~ ~ ! ! R R R Y Y U U U ",
") ) ) ) ) ) ` ` ` ` [ [ [ [  . .o.o.=.=.<.<.q.q.q.q.a.a.h.h.a.a.q.q.4.4.4.4.o.[ [ [ [ ` ` ) ) ) ) ( ( ( ~ ~ ! ! R R R R Y U U U ",
") ) ) ) ) ) ` ` ` ` [ [ [ [  . .o.o.=.=.=.=.4.4.4.4.q.q.a.a.q.q.q.q.4.4.4.=. .[ [ [ [ ` ` ) ) ) ) ( ( ( ~ ~ ~ ! R R R R Y U U U ",
") ) ) ) ) ) ` ` ` [ [ [ [ [ [ [  . .o.o.=.<.4.4.4.4.q.q.a.a.a.a.q.q.q.q.4.=. .[ [ [ [ ` ` ) ) ) ) ) ( ^ ~ ~ ~ Q R R W R U U U U ",
") ) ) ) ) ) ) ` ` [ [ [ [ [ [ [  . .o.o.o.o.<.<.<.<.4.4.q.q.q.q.q.q.q.q.4.=. .[ [ [ [ ` ` ) ) ) ) ) ^ ~ ~ ~ ~ Q W R W W U U U U ",
") ) ) ) ) ) ) ` ` [ [ [ [ [  . . . .o.o.o.o.<.<.<.<.4.4.q.q.q.q.q.q.q.q.4.=. .[ [ [ [ ` ` ` ) ) ) ( ^ ~ ~ ~ ! ~ W W W W Y Y Y Y ",
") ) ) ) ) ) ) ` ` ` [ [ [ [  . . . .o.o.o.o.<.<.<.<.4.4.q.q.q.q.4.4.4.4.4.=. .[ [ [ [ ` ` ` ) ) ) ( ^ ~ ~ ~ ~ ~ W W W W Y Y Y Y ",
") ) ) ) ) ) ) ) ` ` [ [ [ [  . . . . . .o.o.<.<.=.=.<.<.4.4.<.<.4.4.<.4.<.=. .[ [ [ ` ` ` ` ) ) ) ( ^ ~ ~ ~ ~ ~ W W W W R R R R ",
") ) ) ) ) ) ) ) ` ` [ [ [ [  . . . . . .o.o.<.<.=.=.<.<.4.4.<.<.<.<.=.<.<.=. .[ ` ` ` ` ` ` ) ) ) ( ( ~ ~ ~ ~ ~ W W W R R R R R ",
") ) ) ) ) ) ` ` ` ` [ [ [ [  . . . . . .o.o.<.<.=.<.4.4.4.4.4.4.<.<.<.<.<.=. .[ ` ` [ ` ` ` ` ` ) ( ^ ~ ~ ~ ~ ~ W W W R R R R R ",
") ) ) ) ) ) ` ` ` ` [ [ [ [  . . . . . .o.o.<.<.=.<.4.4.4.4.4.4.<.<.<.<.<.=. .[ [ [ [ ` ` ` ` ` ) ) ^ ~ ~ ~ ~ ~ W W W R R R R R ",
") ) ) ) ) ) ` ` ` ` [ [  . . . . . . . .....<.<.<.<.<.4.a.q.4.4.4.4.<.4.<.=. .[ [ [ [ ` ` ` ` ` ) ( ^ ^ ~ ~ ~ Q Q W W R R R R R ",
") ) ) ) ) ) ` ` ` ` [ [  . . . . . . . .....<.<.<.<.<.<.q.q.4.4.q.q.<.4.<.=. .[ [ [ [ ` ` ) ` ` ) ( ^ ^ ~ ! ~ Q Q W W R R R R R ",
") ) ) ) ) ` [ [ [ [ [ [  . . . . . .O.O.<.<.<.<.u.4.q.a.q.q.q.q.q.q.4.4.<.=. .[ [ [ [ ` ` ) ) ) ) ( ^ ^ ~ ~ ! ~ ~ Q W R R R R R ",
") ) ) ) ) ` [ [ [ [ [ [  . . . . . .O...<.<.<.<.u.u.a.q.q.a.q.q.q.q.4.4.<.=. .[ ` [ [ ) ) ) ) ) ) ( ( ^ ~ ~ ! ~ ~ Q W R R R R R ",
") ) ) ) ` ` [ [ [ [  . . . . . .........u.u.<.<.u.a.a.a.=.v.[ b.m.) =.l.v.[ ) ) ` ` ` ) ) ) ) ) ) ( ( ^ ^ ^ ! ! ! Q R R R R R R ",
") ) ) ) ` ` [ [ [ [  . . . . . .........u.u.<.<.u.a.a.a.v.a.=.H ( q.=.[ q.' 6.[ ` ) ) ) ) ) ) ) ) ( ( ^ ^ ^ ! ~ ! Q R R R R R R ",
") ) ` ` [ [ [ [  . .o.o. . .o.o.<.<.<.u.u.u.u.u.a.a.a.a.v.3.q.Z e H ] 8.n.^ g v ) ( ) ) ) ) ) ) ) ) ( ^ ^ ^ ^ ^ ! ~ R R R R R R ",
") ) ` ` [ [ [ [  . .o.o. . .o.o.<.<.<.<.u.u.u.u.p.a.a.a.o.=.q.Y e 3 y N z u 4 g ( ( ) ) ) ) ) ) ( ( ( ^ ^ ^ ^ ^ ! ~ R R R R R R ",
"` ` ` [ [ [ [ [  . .o.o.o.o.<.<.<.<.4.4.4.4.a.a.p.p.a.a.M.} } P 5 3 < > 3 , 8 v P ^ ^ ^ ) ( ) ( ( ( ( ^ ^ ^ ^ ^ ! ~ R R T R R R ",
"` ` [ [ [ [ [ [  . .o.o.o.o.<.<.<.<.4.<.4.4.a.a.p.p.a.q.[ 8./ t 3 < > > > > 4 k H ~ ! ^ ) ) ( ( ( ( ( ^ ^ ^ ^ ^ ! ~ R R T T T T ",
"[ [ [ [ [  .o.o.o.o.=.=.=.=.4.4.4.4.q.q.q.q.a.a.a.a.a.q.=.8.S > < > = & & > , u F R ! ( ) ) ( ( ( ( ( ^ ^ ^ ^ ^ ! ~ R R T T Y Y ",
"[ [ [ [ [  .o.o.o.o.=.=.=.=.4.4.4.4.q.q.q.q.a.a.<.<.a.q.} R 4 > > > & & # > > 0 Z P Q ( ) ( ( ( ( ( ( ^ ^ ^ ! ! ! Q R R T T T Y ",
"[ [ [ [ [  .o.o.o.o.=.=.<.<.4.4.q.a.a.a.q.q.q.a.=.<.=.[ P 8 3 > - - - & # > & y A P E ( ( ( ( ( ( ( ( ^ ^ ~ ~ ~ ~ Q E R R Y U U ",
"[ [ [ [ [  .o.o.o.o.=.=.<.<.4.4.q.a.a.a.q.q.q.4.<.#.=.[ p * > - - - - - - - > a Z L T ^ ( ^ ( ( ^ ^ ( ^ ~ ~ ~ Q Q E E R R Y U U ",
"[ [ [ [ o.o.o.=.<.<.4.4.q.q.a.a.a.a.a.a.q.q.q.q.a. .<.T 9 , > > & - - - ; > q g C H P Q ( ^ ^ ( ^ ^ ( ^ ^ ~ ~ ~ E E E R R Y U U ",
"[ [ [  .o.o.o.=.<.<.4.4.q.q.a.a.a.a.a.a.q.q.q.q.k.[ [ z = ; - > & - - - & 6 a f V G P R ( ~ ( ( ^ ^ ( ^ ^ ~ ~ ~ E E R R Y U U U ",
"[ [ [  .o.o.=.=.<.<.q.q.a.a.h.h.a.a.a.a.a.a.a.k.[ q.P 1 > > & & - - - - ; 7 f k C F P R E ~ ^ ( ( ^ ( ~ ~ ~ ~ Q E R E R U U U U ",
"[ [ o.o.o.o.<.=.<.<.q.q.a.a.h.h.a.a.a.a.a.a.a.a.q.[ g & > > & & - - - - > p j m C S H T E ~ ^ ( ( ^ ( ~ ~ ~ ~ E E E E T P P P P ",
"[ o.o.o.o.=.<.4.q.q.h.h.h.h.v.v.h.h.h.h.a.a.a.a.=.T 8 , > * & & & & - - > h x M N Z H P E ~ ^ ( ^ ^ ^ ^ ^ ~ ~ R R R R U P P L L ",
"o.o.o.o.=.=.<.4.q.q.h.h.h.h.v.v.h.h.h.h.a.a.a.a.q.v , > > - & & & & & & ; p M k M Z G P E Q ^ ( ^ ~ ^ ~ ~ ~ E R R E T P P P L L ",
"o.o.o.=.=.=.4.4.q.a.h.h.v.v.v.v.v.v.v.v.$.[ q.[ V 9 = > & - & & & & - - - p c c M Z S H P T R Q ~ ~ ~ ~ ~ Q E E E E T P P P L L ",
"o.o.=.=.=.<.q.q.a.a.h.h.v.v.v.v.v.v.v.v.=.$.[ v , = , & & & & & & & - - ; p c c N Z S H P T R Q ~ Q ~ Q E E E E E E T U P P L L ",
"o.=.=.=.<.4.a.a.h.h.v.v.v.v.v.v.v.v.v.v.v.v.H 8 9 , * ; & - - - & & & & ; p c c M C S H P T R Q Q W Q E R R E R R T P P P P L I ",
"=.=.<.<.<.4.a.a.h.h.v.v.v.v.v.v.v.v.v.v.$.[ g 4 * ; * & & - - - & & & & ; p c c M C A G P T E W W R W R E E R T T U P P L L L L ",
"<.=.<.<.<.4.q.q.a.h.v.v.v.b.b.b.v.v.v.v.M.^ e > 3 , > - & & & & - - - - : 7 k c M B A G L U R W R E R E E R R Y U U P L L L L L ",
"o.o.o.o.=.<.4.q.q.a.v.v.v.v.v.v.v.v.h.h.l.( u > 3 , > - - & & & - - - - % 2 d k n B A F L U Y R R R E R R R R R Y U P L L K K K ",
"[ [  . .o.o.<.4.q.q.a.h.a.a.q.q.4.4.<.<.[ ( a , 3 , > > - - - - - - - - % 2 d k b B A F K U Y R R R R R R R R Y Y U P L L K K K ",
"` ` [ [ [  .o.o.=.<.<.4.<.=.o.o.o. . . .) ( f > 3 , > > - - - - & & - - : 7 j c b B A F K P Y R R Y R Y R Y Y U U U I L L K K K ",
") ) ` ` [ [  .o.o.=.=.=.=.o.o.o.[ [ [ ` ( R l = 3 , > ; > > > - & & & - > y k c M B A F K L U Y R Y R Y Y U U U U P L L K K K K ",
"( ) ) ` [ [ [  .o.o.o.=.=.=.=.o.[ [ [ [ [ ^ v < 1 , > ; > > > > - & & - w p f x M B A F J L U Y Y Y Y U U U U U P P L L K K K K ",
"( ) ) ` ` [ [ [  .o.o.o.=.=.=.o.[ [ [ [ ^ T k * 1 , > > > > > > > - & 3 d f k x M B A F J L U Y Y Y Y U U U U U P P L L K K K K ",
"( ) ) ` ` [ [ [  .o.o.o.=.=.=.o.[ [ [ [ ) ~ z , 1 , > > > > > > > > & y c M M M M B A F G K I U Y Y Y U U U U U P P L L K K K K ",
"( ) ) ` ` [ [ [ [  . .o.o.o.{ { { [ [ [ [ [ ^ Z , * & > 3 1 > > > * w x C C C C C C B S G L I U U U Y U U U U U I L L L L K K K ",
"( ) ) ` ` [ [ [ [  . .o.o.o.{ { { [ [ [ [ [ } ^ ! F z f p d k x B M S L G G G G G S C B G L I U U U Y U U U U U I L L L L K K K ",
"( ( ) ` ` ` [ [ [ [ [  .o.o.{ { { [ [ [ [ [ { [ ] _ { ~ ] ) ~ ! ! ! W Y Y U U U I J F S F L I U U U U U U U U U I L L L L L L L ",
"( ( ) ` ` ` [ [ [ [ [  .o.o.{ { { [ [ [ ] ] [ ] ^ ^ _ ~ ! ^ / ) / / ! ! ! ! ! ! ! Y I J G K L U U U U U U U I I L L L L L K K K ",
"( ( ^ ^ ^ ^ ( ( ` [ [ [ [ ( _ ) ) ] [ } } ] ] [ { ] ] ( ( ( ~ ! ! ^ ~ ! ! Y Y U U P P P G S S G L I I K L I I I L L L L K K K K ",
"^ ( ( ^ ^ ^ ( ( ) ` [ [ ` g.=.` =.[ [ =.} } { ) ~ _ [ ! ~ } ) ] ~ ] Y ] ! Y ^ ! R U U Y I L L J J L I L L I L L L L L L K K K K ",
"^ ^ ^ ^ ^ ^ ^ ^ ^ ( ` [ ) W ( [ [ =.} [ } { [ } [ [ } } 8.^ ] _ [ ] ^ } ^ Y _ ! U ! ! Y Y U U W A S G L L L L L L L L L K K K K ",
"^ ^ ^ ^ ^ ^ ^ ^ ^ ^ ( ` e u U P y 9 z [ N u u M [ M y e k ^ g y u A ! 0 a Y 8 C ! N N ! h 5 5 h A 0 y U L L L L L L L L K K K K ",
"R R R R ^ ^ ^ ^ ^ ^ ( _ r G { * L ) Z Y * ! ^ 4 F g p 8., L e F P = _ p y R + r ] w C f y I D x U B 0 I F G K I P L L L P K K K ",
"R R R R ~ ~ ^ ^ ^ ^ ^ ( 0 H _ 5 z R n.p v ] } Z y M e L e ! 8 k N y z.x l Y a g H f C > L U ! W U B 0 I G G K K L P L L P P K K ",
"W W W W W W W W ^ ^ ^ / u D _ U y $ l u M ^ ] A a N 3 g 8 F 9 y a w ) z k ! w G p p k r L C 5 s U B 0 I K K J G K P P L P P L K ",
"W W W W R R R R ^ ^ ^ ^ y F ^ ^ 8.^ 4 p f } 8.z f l N B.z y u R n.8 G M M Y 0 { u @ C 8 C / S < U B 0 I I K G F G K P P P P P L ",
"Y Y Y Y U U U U ! ^ ^ ^ w F ! w z z e L 3 l l 3 P g , k 8 F , p a w L 4 4 F 8 ] G   F M 5 c c 5 U B r W K K K J D G K K K P P T ",
"U U U U U U U U W W W ! 0 S ] A g g ! ) H g g H ^ L v z L } S l v U P n C U F R P S H ! S a a S W B 0 Y K J J G K H G S G H H P ",
"U U U U U U U U Y R R W a 5 A ! R ! ! Y ) _ _ ) ^ ] =.( [ ^ ^ ] ] ! ! ] ! ! ~ Y Y ! W W ! ^ ^ ! B 8 a ! K K K J K K H D D H H H ",
"                                    . X             O     X X o       o       o X X           X X                               "
};
