/* XPM */
static char *f0e2314e45af401ee57f07d08ab51355u6cevE4vr6MSLuID[] = {
/* columns rows colors chars-per-pixel */
"64 64 241 2 ",
"   c #030202",
".  c #0B0302",
"X  c #050901",
"o  c #0B0A04",
"O  c #01020A",
"+  c #0A030B",
"@  c #040B0B",
"#  c #0B0B0A",
"$  c #120502",
"%  c #140B03",
"&  c #1C0D02",
"*  c #14050B",
"=  c #130D0C",
"-  c #1B0E09",
";  c #1B0703",
":  c #0B110F",
">  c #151105",
",  c #1C1304",
"<  c #16130B",
"1  c #1C140C",
"2  c #1D1A0C",
"3  c #1B1B0B",
"4  c #050514",
"5  c #130D13",
"6  c #1B0B12",
"7  c #121214",
"8  c #1B1613",
"9  c #1D1B14",
"0  c #1A1519",
"q  c #181A19",
"w  c #210D02",
"e  c #210D0C",
"r  c #290F00",
"t  c #241303",
"y  c #2A1604",
"u  c #221904",
"i  c #2B1C05",
"p  c #23150B",
"a  c #2B160C",
"s  c #241B0D",
"d  c #2C1C0C",
"f  c #331D05",
"g  c #321C0C",
"h  c #361C0B",
"j  c #231512",
"k  c #2B1613",
"l  c #251C12",
"z  c #2B1D12",
"x  c #241C1B",
"c  c #2B1D1B",
"v  c #231218",
"b  c #321E13",
"n  c #311E1C",
"m  c #3B1D1A",
"M  c #1F2012",
"N  c #2C2104",
"B  c #25210D",
"V  c #2D220C",
"C  c #2A280E",
"Z  c #2D2A07",
"A  c #332206",
"S  c #3A2305",
"D  c #34230C",
"F  c #3B250D",
"G  c #342A0B",
"H  c #3C2B0E",
"J  c #3B330E",
"K  c #242213",
"L  c #2D2214",
"P  c #2E2913",
"I  c #27221A",
"U  c #2D241B",
"Y  c #2E291B",
"T  c #342414",
"R  c #3A2514",
"E  c #352A14",
"W  c #3C2B14",
"Q  c #33251A",
"!  c #3A261B",
"~  c #352A1B",
"^  c #3C2B1C",
"/  c #3C3315",
"(  c #3C321D",
")  c #37341D",
"_  c #2F3614",
"`  c #2A1B20",
"'  c #2C2522",
"]  c #252823",
"[  c #342621",
"{  c #3A2622",
"}  c #342B22",
"|  c #3C2D22",
" . c #392C2B",
".. c #3D3223",
"X. c #3D3429",
"o. c #41260B",
"O. c #442B0D",
"+. c #4B290F",
"@. c #44320D",
"#. c #4B310D",
"$. c #4A3506",
"%. c #55320F",
"&. c #422714",
"*. c #422C14",
"=. c #4B2D14",
"-. c #432619",
";. c #422D1C",
":. c #4A2E1B",
">. c #522E1B",
",. c #443214",
"<. c #4C3415",
"1. c #463815",
"2. c #4C3B14",
"3. c #44321C",
"4. c #4B341C",
"5. c #45391D",
"6. c #4B3A1C",
"7. c #533314",
"8. c #543A16",
"9. c #53341C",
"0. c #59361B",
"q. c #533A1C",
"w. c #5C3B1C",
"e. c #593813",
"r. c #633D1B",
"t. c #673E17",
"y. c #422E22",
"u. c #4A2F21",
"i. c #442A24",
"p. c #443323",
"a. c #4A3523",
"s. c #443A24",
"d. c #4C3A24",
"f. c #45352A",
"g. c #4C3629",
"h. c #453B2A",
"j. c #4C3B2B",
"k. c #513622",
"l. c #533C24",
"z. c #5B3D23",
"x. c #503A28",
"c. c #533D2B",
"v. c #5A3D2B",
"b. c #553626",
"n. c #4D3B33",
"m. c #483934",
"M. c #533D32",
"N. c #5F3E37",
"B. c #613D27",
"V. c #603C32",
"C. c #50400F",
"Z. c #4E441D",
"A. c #53421B",
"S. c #5B421C",
"D. c #584216",
"F. c #64451D",
"G. c #6F491E",
"H. c #65471A",
"J. c #4D4225",
"K. c #4C402D",
"L. c #434128",
"P. c #544224",
"I. c #5C4324",
"U. c #5C4A24",
"Y. c #55412D",
"T. c #54422C",
"R. c #5B432B",
"E. c #5D4A2C",
"W. c #554A2B",
"Q. c #4D4133",
"!. c #524031",
"~. c #554332",
"^. c #5B4433",
"/. c #5D4A32",
"(. c #524639",
"). c #5B463A",
"_. c #5B4A3A",
"`. c #564E3D",
"'. c #5D5134",
"]. c #634424",
"[. c #694624",
"{. c #644A25",
"}. c #62452A",
"|. c #694429",
" X c #644B2C",
".X c #6A4B2C",
"XX c #6B4B25",
"oX c #714F2E",
"OX c #724A26",
"+X c #6A512D",
"@X c #655029",
"#X c #74522D",
"$X c #76552B",
"%X c #624632",
"&X c #634B34",
"*X c #6A4C33",
"=X c #634B3C",
"-X c #6A4C3C",
";X c #654535",
":X c #655233",
">X c #6D5434",
",X c #64513B",
"<X c #6C543C",
"1X c #6B5937",
"2X c #725533",
"3X c #7B5C35",
"4X c #73553A",
"5X c #755C3C",
"6X c #795C3B",
"7X c #775636",
"8X c #7C613D",
"9X c #5A5041",
"0X c #644B41",
"qX c #665242",
"wX c #6A5542",
"eX c #6C5C44",
"rX c #69594A",
"tX c #735C43",
"yX c #7A5C42",
"uX c #755D4A",
"iX c #785945",
"pX c #756243",
"aX c #7B6245",
"sX c #7B654D",
"dX c #79654A",
"fX c #7A6550",
"gX c #835B37",
"hX c #82623D",
"jX c #886639",
"kX c #815F43",
"lX c #826443",
"zX c #896B4A",
"xX c #84684A",
"cX c #8B754C",
"vX c #907F4B",
"bX c #876C52",
"nX c #8C7458",
"mX c #927A54",
"MX c #917760",
"NX c #8C7762",
"BX c #998763",
/* pixels */
"Y.h...a.a.j.d.=.| T p.^ ;.j.l   s.v.d.p.x.^ K p.g.g s.s L Y.Q   2 j.x.f.| j.x.5.x.6.Q ^ 3.^ c.^   Q R.g.f.g.p.s ^ v.L ( T 1 x.f.",
"v.j.p.;.a.3.3.6.2.S 1.H 3.!.1 o d.^.p.z y.! P d.s.T g.p T x.z   1 !.x.g.~ p.a.5.f.J.s L 3.^ !.^   ~ Y.g.Q T s.l p.l.U j.T l j.y.",
"^.d.i l.4.l.E.*Xl.z.l.4.*.s.l   j.M.f., p.p.L 3.p.T | % | ~.L O p !.d.E p Q f.d.!./ , p s.p.p.|   | Y.h.s L s.L W 4.L X.& c Y.p.",
"j.3.W v.R. X4X%X-Xv.b.k.*.g.l   f.j..., ^ ..T ! X.z ~ % p.^.Q   > ~.d.~ , ! f.4.c.J.1 l ~.! g.p.  ! ~...2 T ;.! W d.U X.& U Y.g.",
"=XR.%Xg.j.6.,.3.8.I.I.2XI.W p # d.p.i d ^ ^ y.^ X.^ j.Q p.c.Q O 1 ^.;.s.2 | y.3.p./.Q s j.k j.;.  ~ ^.p.L ^ ;.p.T a.L j.! X.d.f.",
"a.z.W % % W l.p.j.3.l.R. XR.& - W s.T.*.W d.-.a ! T j.~ ^ a.L O l j.*.p.Q ~ f.d.x.P.| p f.R a.;.  | v.s.s.;.l.a.T x.| !.p.X.*.! ",
"p.A ,   # & 4.;.O . ; g =.z.4.^ a.D l.}.dXxX}.z.^ *.a.^ 3.b.Q O s f.4.s.f.! j.6.c.5.U l d.^ j.p.O T 4.^ s.;.l.W t a.| c.a.g.^.j.",
"k.z.j.O O ..D L o < T E.w.0.R.g T ( 4.w.4X{.].A.a.4.3.W W a.L   s c.-.p.z ! ;./ ^ N [ 1 E s.^ p.@ s d.^ p.3.4.W k a.~ l.4.^ R.a.",
"p.8.#X0.a.Q.% j 3.^ ^ W ].I.& O , 6.}.z.U.W R d.c.t.Y.j.f ~ c   7 F ,.3.t c ' H l s *.*.T z R z.W t M.4.I.l.^ K F E.a p.j.f.d.f.",
"s.a.=.}.W t u.7.E u V ,.l.y % O a I.8.R.wXp./.3X5XF.{.s.4.9.{ n T.}.k.4.S.:XL d l > ~ j.%X}.z.9.3.a.d.*.4.g D H ;./.a p.c.| a.g.",
"l.c.g L > O . $ 1 Q 3.^.3.% 8 O F ~ 7 # N  XQ $ p ^ D % T 9.~ ~ q..XwX<XhXcXT.i W s = - h z.6X{.q.;.g N W R b.<.3.d.s p.^ b ^.f.",
"0.{.<.f.= @   O . Q x.tXd.K K   F ~ :   ^ v.Q X   1 j.% d <.T ~ d.T.p.g.iXyX X,.8.l.R a k T T.dXaX%X^.R.U.*X*X-.D d.U ..p.! E.g.",
"W .X2X0.o.z.<.d.(._.%X*XdXj.L T P.{.].:.;.w /.$XpX{.R.R.z.R.+.f.L % . ~ R.].].v.g R >X&Xd.T.f.f. X<XwXI.S.4.a j D J.Q ^ d.^ T.y.",
"L d F #.F.XX6X2XE.6.I.R.l.c.Q 1 ~ I.w.}.1.( T =XnX>X4.*.3./.2X% .   P W.H l.{.z.j.& V T.l./.qXM.^ c.z.8.I.g & } p.s.z T ;.;.T.p.",
"s.~ | A 4.c.p.3.W W ~ T w g p   j W 1.5., o   } _.$ T j.s :XlXh.Q X.5.G > ~ z.w.E T t b { | ^ 6.~.Q , u T w p K.d.j.z T f.g.l.!.",
"x.a.p.X.a W l.g a 8 = c 3.*.~ 9 6.S.^.6 O   . 8..Xu 8.d.~ e.+.d.S.T e * O % I.v.K A [.:.# O   z.3.. O < ~ s i d.3.3.Q p.p.g.T.g.",
"s.p.^ ^ Q s T d y C.+X<X{.S.tX^.b @.D.6.c s D U.3X4.<X*.<.q.p 2 k k d ..o % 6.w.' t {.4Xn.` Q 5.# O c l.l.R z s.f.~ b ~ s.p.j.d.",
"M.f.;.y.~ s & p.M.,XNXBXvX+X4.6.' * { 4.F.{.U. X*X{.^.y q.P.# O X s l.2XyXI.U..X) W 9.*X*X3.T.T t n.rXd.D t y.*.3.p.^ ^ p.p.^.c.",
"~.d.R ;.T ^ ;.4.w.oXyX4.l.R.^.O.Z.Q * T U.+X4.d 5 Z 1 e {.4.&     L .X#XXX{.,XfXJ W k.z.P.G ..c ~ 9X~ V W ^ s.a.,.3.;.p.a.*.x.v.",
"j.^.3.;.R T.%XI.+X8XI.q.O.P.>X{.H.{.W p ;.a.^ j f.A.E ; T.E.t o *.{.R.*.W T l p.W O.U.P.s.<   O O o K W ,.d.b | 6.c.p.a.a.4.v.g.",
"^.a.x.a.d a.l.q.3 o & 1.3.* + * m ;.l.4.=.{.J _ .X6X1.p M.U.,.^..XS.a.f.`.L z 3.b z. XE.y.. . o < ~ d.<.4X4.s c d.f.T p.c.a.c.d.",
"c.j.;.^ R W S w.@ + a H i s.G P.S.3.5.,.I.9.u.d.2X<XU.a j.cX.X9.3.3.W ^ 1.1.l.<.R a.&.}.*X=.z.}.|.w.7.*XuX*.;.y.i ! z p.j.3.c.c.",
"f.c.f.g.T T *.}.^ D <XM.. T >X0.o.c.z ..s.4.0.G.zX3X2Xv.R E 8   D d.4.4XlX6XS.l.R.R w R.bXyX Xb.z.z.4.& d /.*.W y d.^ 3.a.l./.x.",
"Y.a.f.g.T d.*. X4XnXE./ x > 6.9.g z.O.l.^ /.<X;Xf.A.;X-XF $ + q 8.%XR.z.%X*X{.c.I.z.D ^.^.E , % O > U z R 4.3.d.E.E.F 4.l.a.v.v.",
"l.3.Y.p.R 3.W 3.D.#XH X   O - !.U.l.D 3.d.&XaX{.| ~.m.f.*.^ ' z.r.R.I.z.y.g.U.Z.z.b.%Xb % = = e   d :.z.*.*.I.I.P.^ w 3.T T l.4.",
"M.^ s.a.R ~.;.s 6.Y.L   O   s Z.^.g.Y ] X X - ! I.&Xu R G.e.v.8.4.R L V 2.D   + i 3.a.& 3 M L ~ o ^ *.v.:XXXI.(.9 n v.l.d R R.3.",
"~.3.q.@.S.{.l.W ~.T.4.V L ;.R.E.y.p.&X/.V % } = j O O ] v.R 1 $ V 1 + # s.K O O D /.*XW ^ V T *.l 4.z.tXxX$Xz.8 O . *..X>.v./.s.",
"n.^ 4.>XlX>X4.c.D 4.XXq.R.uX0XQ o ^ %X*Xv.p.<   W . > / q.E./ j.q.j j ! x . 3.'.fXtX<Xx.p.~ ^ T j.<XlXzXhX%.4.c - 2 / XX0.T.'.R.",
"j.T.uXMXbXbX,XT.5.&.&.i l  .j o l.l.T | n.f.t d *XV.b.{.|.a.W 9.z.%XI.S.d.b 7.H.p.D T ~ > % o < & V <.#X X2 2 d L ..J.W c.z.{.:.",
"d./.pXR.}.aXpXW._.%X%XT.s.f.d ) *X&.t l > p y.g j.%X8.{..Xu ~ 8.^ D ~ ) u = x a.l.3.;.p.p 1 o < l < < d...@   t $ k T   ' |.t.d ",
"| ^ a.b.k.v.& . r 4XlXU.6.R.R.l.T T ! ~   O O O l d t *.}.D |  Xs.d <     O # t :.R.*X*Xa.! g T T I = p U o . *.Q v .   T lX.Xt ",
"b t E.+X{.l.Q 8 W.nX<XV U j.*XO.S.I.=.y.Q         K K L F.,.z 4X{.a.-.h ~ T 9.].l.P.6.R.d.4.6.W q.g j $ ! 3. X}.C.# O *.S.P.j.g ",
"8.~ 1 $ & U T I.4X7XtXf.l.XX7X*.@.9.R.P.P.k.-.T | D E G ,.g.=.=X#XF.[.$XOX#XoX7.R.<Xc.l.].].I.R.:XP.W T d '.T.R 4.f W s.t s d d ",
"^ Q X     l % | 4.*.d./.*XhXI.X.j ^ 5.3.;.9.9.P.w.z.P.s.T T.<.S.f.c.l.8.{.1Xd.g.dX,.i 3.p.a.<X@X4XkX9.b.i s.E L l.c.3.T 3.( T T ",
"s 3.p.% % j.f.I = X > z.gX#Xl.3.^ & $ Q W 5.3.c c c H l.}.8.m ^., s f.j.d T E W.n y ,.W.I . ! %X4.%X<XO.q.D *.:X^.p.3.p.T.d s j.",
"T t T.eX/.4.g .   ] ^ |.].l.3.<.v.;.D l.a.z 2 d 1 0   # < J.6.$.R y *.P.6.6.W t c c.aXp.. O $ d.5.^.<X].8.a.a y s t s w y d f.j.",
"^ l ~ T.W ^ 1 1 4.4.w.oX^.' 1 :.D ..s.I.}.4.3.9.q.q.=.=.z.v.wXm.%XbXI.S q.l.v.v.1XaXxX-X^ , E P.6.<XxXxX&X| x } ^ y.^ ^ j.d.d.a.",
"R.T ..4.o.s.h.^ &.z.7X}.^ = ~ }.H 6./.,X>X{.l.R g / U h.J.d.E.~.1XpX3.g y.;.c.l.d.4.*X<.I.J.T c . $ ^ l.d s T s.y.g.^ ^ d.a.c.d.",
"z.W R W *X%X4.3.| p.R j.f.k..X]._.{.2.H v.;Xd.~ L., - f.l.:.%X;.v.dXE.d.T.W d ~.%XM.y.u E L . 6 O = h.t T 3.,.<.^ p.;.a.d.*.c.d.",
"`.p.~ I - d i < & t ~ f.l.r.].( Y  .n.5.,..X}.1.l.g t d.I.@X<X&Xz.<X-Xc.;.T.H 6.H.P.< O + j t d.- V 5.t | ~ g.j.*.f.W T d.4.T.*.",
"=X;.s.g.t d ^ p.Q l w d *./ d.R O   T f.^ ( 4.P.4.0.z.<.6.X.k *.R.< O O p.z.d % I.2Xa.+ 4 $ c.E.%X;Xf.T p.W d.c.;.6.& k R.4.n...",
"=Xc.j.s.T p.p.s.v.~ L 2 R 6.<Xg O . S P.% O T S.| L L ) ' O   C ^ ^ d y .X2X3.L }.2Xq.%   t d.*.f.0X! ! j.f.M.{ ! 3.f.! l.*.T d.",
"^.*.p.~.T p.T ^ 9.p.U X | d.aX{.( d.4.R T a ^ R.T.j l / 3.g i [ , ^ *XaX8X.XI.d.! z.8XE., l.R.4.d.3.t 4.E.eXfX,XT.W g.p.l.}.4.W ",
"&Xa.d.p.t s.p.R ,.D T 1 j.E I.7Xe.l.} & =.oXyXqXq.u.4.@.:X:XI.N.d T s.!.T T h.s % T E.@XP.T.=XqXp.y R l.v.T.=XwXeX&X^.l.F a.;.3.",
"^.a.p.& t | p.d E ( ;.t *XJ.F R.R 1 7 U R q.o.W S.l.T Q j.3.Q.~ 8 O O x ^ 4.R.;.8 > ^ l.W , & h.p.R a.l.v.v.g *.4.l.4.3.d.p.T j.",
"/.a.;.p.d ^ ^ ^ p.~ W i B.tXR.W X X     s j.W T.*X1.% = W H ~     # 8 | 9.0.4.T l > % f.& < 1 s W F 6./.,XeXl.d.wXqXR.P.f.& T Q.",
"&Xl.W ~.s p.p.p.M.~ / 5.%X%Xb.P.) 1 l z p.J.j.=XV.P.J D ^.*X;.~ 9.=.4.4.d , o # R ~ ^ W t I U *.a.s h.l % . | s.X.} R T.Q % d.j.",
",Xc.D s.^ p.^ ^ a.T *...g t =.}.S.{.>X].w.|.z.4.4.^ 3.^ k F 2.g.3.T.j.l X 9 L 4.0.W ,.<.D } | =.a.i B 3   8 l V o   , p.p Q 6.a.",
"_.j./ s.W 4.3.v.].f s.l 1 1 % } v.{.tX).6.4.Q > 1 F 4.p o 2 ~ - L ^.;.% T *.z.w.tXqXl.;Xz.T Q d E y v.l.K < % W f.& W 3.& Q p.4.",
"}.4.*.p.T !.^ p.Y.E.<.;.g T % O T 1.;.z D 9.-.d.>.^.eX).f.d.c     , c.4.W 3./.<XuXiX;Xd.d.D ..l 3.j._.E.P.a.! y.*X4XzX>Xg ~ g.^.",
"*X4.*.c.^ ^ d W c.:XmX=Xx.F ,   ; 3.! % i q.*.l.x.s.9X&X.X4.l.<.O U ^ h h f.wX^.^.c.z   , =.0.j./ E ^ d 3.b | Q | ! W ~.^ ~ p.v.",
"!.f.p.j.T R l.I.R.>XaX^.)./.T.b 2 ( s o L R.B.;Xs.N p.q.].I.D.].R u W R.z.6.8.%.6...  # y.|.|.T E 4.*.T x O       U T T L | a.v.",
"K.s.p.j.a W /.:XaX<XF 3.c.3.&.a.a.a.p 1 < ^ d.h.3.l.,.~ s.2.K.} 4.^ V ;.4.T.&X*X8.s # p v.%XT.% 1 j.R.d...9 9 } *.4.l.l.D ^ p.g.",
"%Xa.p.j., L s L p.g.^.,X*Xl.v.T , ~ d L $ j.l.p 5 t ,.l 5 j ~ % . U 1 g.^.g.l < p 0   p.+X,.s.6.{ s T ;.z.S.U.*.~.;.y t T p.p.g.",
"v.l.d.3.V g.z % z Q.T p.~.T.d.;.y ;.R V d aX:X% 4 s z |   . q.z.V W Y./.,.l.,   $  .8 s i 6.I. XQ.d a g.:.w.+Xz.I l U | ..( f.g.",
"n.j.f.;.^.wX^.a.y.W B O   / O.z.p.p.d.*.b.lX3X^.w.^   l T.U.&X^.S.|.x.D t *X=X(.D.D.D o O } =Xp.7 u f ;._.s.p.a y &.4.*.3.3.g.j.",
"c.f...T T D a.;.= W d.. z d.,.Y j 1 s l i.%X&.s 4.^ z W &Xc.R R.Q [ k & c.>X3XjXE Q.o O o *.z.=.o ~ d.T ^ d.D z y.g.^ ^ ^ R g.g.",
"l.k.d.T.s.. % 8 5 L ,Xj.=X6X{.&.1 , 3 1 & W E P d 8 7   X.X.3.}.z V ,.W z e b q.q.j.% . d.].I.U   a 3.^ d f y ~ a.f.T ^ p.;.j.g.",
"f.*.&.T.T.L o O   o ..^ *.l.U.z.T ^ E s , 3.E ~ o     X > j./.P.d.*.3.^ s o = c r.R.T I.2X6Xp.% X a R ^ ^ d.W p.f.s.T W p.p.d.j.",
"f.L t D ^ ~.g.^ a l l t d ~ X.M.a.a.D g 4.*X9.l.| | ^ 4.O.,X;., ^ ;.! t E B 1 1 |.sX<X>X Xh.L g # a R R ^ ^.a.^ p.p.T T 3.3.a.d.",
"s.^ ! | t F 9.9.3.f.~ i A U Q x.a.d.*.4.*X*X7.w.*X4XzX2X0.6.,   $ ~ d.H ~.| T D I._.p.y i , L ;.9 b ;.T ^ d.3.~ p.p.D T p.4.d.j.",
"I.v.;.n.s y l.z.W ^ ^ ,.8.R.a.=.V T ^ W l.P.q.8.r.7.{.W d K 1 O - ^ d.*.T.R W ;.N s 1 y.;.p.~ B 9 ! x.^ p.x.a.~ f.f.d T p.a.T.j.",
"z.z.*.j.~ T ~ d T T ;.W D a.;.R C L z i N T T H :.,.s.> l Y 1 0 E d.f.*.d.W y.f.i ^ ~ f.c.4.p.X.  T ^.^ ^ d.3.T a.j.T ^ ;.^ c.j.",
"~.c.d.a.^ f.~ | T g T s K ' =   W | ! p.h.Q j ~ c , / & T W s   s !.T.a.g.f.^ W y.9.=.3...p.^.i.  T Y.y.p.T.3.L p.j.T ^ R g j.g."
};
