/* XPM */
static char *_41fcc31687f47cfae62b2eb26b0062fcwTUvDUCKP0jU21T[] = {
/* columns rows colors chars-per-pixel */
"64 64 44 1 ",
"  c #473623",
". c #513D26",
"X c #493726",
"o c #4E3B26",
"O c #4B3924",
"+ c #503D2B",
"@ c #392E1D",
"# c #443422",
"$ c #4C3A29",
"% c #543F28",
"& c #443223",
"* c #523F2E",
"= c #3F2F20",
"- c #564129",
"; c #3B301E",
": c #332819",
"> c #392B1C",
", c #5B422A",
"< c #564330",
"1 c #64472D",
"2 c #3F321F",
"3 c #5F452C",
"4 c #69492F",
"5 c #5B4731",
"6 c #6E4C31",
"7 c #7A5336",
"8 c #8C5E3E",
"9 c #744F33",
"0 c #83583A",
"q c #604B34",
"w c #986543",
"e c #1B1A19",
"r c #A66F4C",
"t c #65513C",
"y c #2A2521",
"u c #F8E0D3",
"i c #EBB89D",
"p c #DF9C76",
"a c #F9CCB4",
"s c #FBF0EA",
"d c #C08664",
"f c #797979",
"g c #626060",
"h c #A49C98",
/* pixels */
"**$;;O%-%o$$o.%oOO ##22>:>==@>@@;====>::==& &&##XoOOO    ##2@@;#",
"*<*22Oo-%o++Oo..O 2@>>>::>>>>:>>=====::>==&&=& # OO  2;;2;;@>:>#",
"$+o#;2 o.o+oOOOO2;;:::@>>>===>>::>==>:::@>===&&=&#2@;@>@@;;@@@= ",
"2###2;22  #22222@@>::; X#XXXX#@::>@;@>::::>@>>>>>>>::::>2o..%<<,",
">>@22@>>@;;@@@@@@>::>X%+$$$$oo2::>;@@@>>::::::::::::::>2.1133551",
"@@=2#2>@@2$+$X #;@>:>o%OX #O.%#==&&22&&&=:::>;2=22;;@@@ ,1,%+$+3",
"XXO.%o22#+qqq,**o#2:@O$XXXO.-,X&O.%...%-.=@@#OoOOOOO#2;#%%$$***<",
"+++,13#= <5<<%$<-O2>;Ooo.-,,,3$X.,1133313 =&Oo O #OoO2;2$+$*<5<<",
"-<+%31#@ <<oOOX$$.&>=O.%-3113,oo-3144114qX; ..O  # Oo#@2o**<555<",
"*<*+-,2@O<-o    +-#>= %,,34443.o,44664444o#$,,.O ##O.#@2 +<*55<5",
"*<<<-X>@O--o  OO.-#@#.,331464q%.,49666661o#%11-.OO O.#@#$*<**<<5",
"<5<*++;@ .%O OOO.- ; -31464441%.,67777664.#%663%.oOo% 2 $**<5***",
"*-<**-2@#O%o XO.33O2o346666441.O-60077799% ,974,-.o-< 2 $*<<<+++",
"<55<*+&=#$-%o.O%11o#%197777796%#.10www809%O,70641-.--&>&$*<<+*<<",
"<555-X==&O..%%-161o .478888076.#O39088071O ,780774,,%&@#X+*<*+<5",
"+*<5,X;=& XOoo%11,o2X36777996,XOo366641,O##-9000763<o2;2#$+++o+5",
"$**.o#@>=#==###OOX#;2O...oOo.O#O-3133,,o#2 %144413-+O;>>=#X ##X+",
"#XX&=>>>@==>@;2#  #22222&##Xooo-6964311-O# O.%%%.o$ &@::>>@;;;=&",
"&X$$#=>>=&# X$*,,333,O2; .-,3467880770073O #O-333,+&&22==>:@2&&&",
"X+<<< >=&o%-<5q6700801X#,97978wrrrwwwwww9.OO308879q<-+$$ @>#$<*+",
"$X$-,X==o<,-%-,19708w7..9w88rdppppppdrww0,o30wr876453%+X&>=O5tq*",
"XX+-+X=&%3-$o-314690w0,38rwrdiiiaaiipdww83%t8w89644q5*oX2>@$5q<+",
"X$$$oX=&%%$XO%346970w7,18rrrpaaauuaaiprw85-9887444135,+X=:@X*<<+",
"X$+ooX=&..XXo%314t70w7-,8rwdiauuuuuuaprrw4398894441333%X ;> $$$+",
"o%,-%X;2ooo..-31tt98r0,38rwriuussssuaprr8137w89644413,-..2:=X $+",
"o%---#@2Ooo..-166698w7,10w8riusuuussaprw7,18w0964441,--%.#>=&&Xo",
"##XXX==&XOooo-3q467886-,6790pushffisad99436880796413,-%oO2>>=&##",
"@@==@>=& Ooo.,31678w01.o-3.Xraugyyhsi8#.-1988880941133.X2>:::>>@",
"#2=2@>=&&#XXo%,349709%XO-1,2thiteefad<#o%349777763,,-. =>::::>=2",
",%+X;@;=====2# oooo+$ #O3084XgfXeetfg$-%o+o$oooo$XXX&=>:::::@#o+",
"341O;;2 #&&#2222&#   #X.18r7=y@eeey@;,93.+XXX   XX&&&=>::::>2X*+",
"*,, ;#-,,-,%oOOO$.-,,,%.18w0.eeeeeee;0063qq441,<3<*+$X&2==;;;#oX",
"$$o=>O15-oO.%,,,3490886.,7801eeeyyee&87q5t8ww8077615*o$o.#;;;#$o",
"X #=>O,%oOX.--514467089-,6771yeeyyee 01<50w880077645*.oXo$&;;# $",
"XX#==OoOO Xo%,54qt46789%56694>eeeeyyo4%-488077996415,+$##X&>@;2#",
"XX&==2Oo*o$o%35qttt9786.<1466.yeeey#,,o<7w0779666q55-o#&222@::@;",
"2;=@>;$+<%$++<5qtt79701  .,164Xeee:.-%-t8809666tqq5,. ;@@@@>:>@@",
"22=;@@#$*oX$+*<qq14977,=2#o%,1,:ee2XXo370796466q5<-. 2@>>@@@@=2;",
"*%.O#@@=# ##X$o.-<,511o#XOOoo+o;e:2;#o343-,,,55,oO #=@:>2$+.....",
"q1,%X2>>&XoX&&&& XXX  O,664413o&::@@2OoO#=2#OXXX&=>>:::>X5qq351q",
"<<.o+ @=*53%X XXX &&;2-78880006O22 Oo.O ==@& O++X#=>:::=*5<-+o-3",
"<<++*X; 5t5*++*-,%X&;2,70797087,X 3999963. O177q<%oX&=>2.-o$$O%,",
"**+OX &X5q<-<<**%*o 2#-466469073 O78008881 O77q,%o+*$#@2o.Oo.%%%",
"**$XX &$55*+<<%.o+$#=X%,3146699, .7096977%=O96+oo o$* @;o%o.-%-%",
"+X$$X#&X***+**Ooo.O&=O%-,344141.&o6941111 >Xq5oOX #X- @;#o%.--%+",
"XXOo$ &X+++*<+X$+oO2= %,--,333,o&X,1113,.2> --+XX$X$- @;&$...%-%",
"XXoo$ &O$oo-1,o** #;;#Xo.o+-,-.## o,33--%2@&o%$ XXXo- @; Oo%-..o",
"$$%o$ 2 $o%,13+$+o#;2O..oXX$+.O;2 O.%-.+%#@=O%o# XX-, @; .%%-oOO",
"$++O$ ;#XO----+$+%o2#o..oXX$$%O;@2 .%%.oo2>=O-%OoXO,1O;2$-,-%+%.",
"++o$X#@;=&$$o-++%.o2# OOOO.*+%X>>;#o%.oOX;:=O...%o.33O; o%---%%-",
"***+X#>::=&# OOOO &;#OOOXo%%o+ @@2#OOOO# ;:2XXo.o+-,%#;#Oo*%%oo-",
"<<<+X&>>2XX &==& &=2 OO Oo.o+.O;@;2# # 2=@>2##XoOO$oO#@2#X+*OOXo",
"$$$ >>;#-q1,.X#&&&&&#XX   X$$O ;:>@@===@@>@2#########2@@==#$X###",
"&&&=>>2X5q3315%+$++$XX#;;2##&&&2;@>>=&&2;>@2XX$$$$ X 222&===& =&",
"+++oO#& o%..%+$*35<<-. @=O.$o$$ooO  $-<% =@2+514qq,.%-%%*X&X*5<*",
"**<<,%&#XOoo+**<5*+*+o#@#,,o%%.%.Oo$X+<3+&=oqq3<<-...o+++X#*qtq5",
"+*<<%,& .O X+*<55<*++* @O3,%--%-.XXXX+<<*&&,43.O$.oo.o$$o  <t655",
"o+*+o.& -+X$*<5555<***X@X,----.%.oOO$**++& 53+X X$o++-+$X# <q5<<",
"$$*%oO& +*+<55<<<<<<<+#@ -%%..%oo+o$$*<*+&X5<$X  XXOo-+$.O#+<-%*",
"$$+%++&#$**<<*+***<<<<X; %o.+++XX+++*555*#$<<++$ X$OO+%-3o;X%oo+",
"oo+--*& +**++++***5<55$2 OOo++$X $+*<q5q*&X<<*+$XXooO$-55O;#OO$+",
"OO$+oX2 *<*$$+*-*<5<<<O###  X$$X #X$+-**$#X*<*$$X$$Oo%+-- 2 XXX$",
"#&=@@@@#<5<**++**<5<-+ =@@===####&&###2=#X+***+++oXXo-.$X2@22##2",
"2=>:::@2*<**<*$+***-<o2::>@2&#   #&&&2@>;$<*++$$*++oooX&;>:@;&22"
};
