/* XPM */
static char *_79bd7ce34604e8ea97a83753eab6070kHu4C3AYhtV5rP8l[] = {
/* columns rows colors chars-per-pixel */
"64 64 27 1 ",
"  c #322A15",
". c #2D281B",
"X c #28251A",
"o c #2B281F",
"O c #2E2713",
"+ c #292826",
"@ c #2F2A1F",
"# c #2A2413",
"$ c #100C09",
"% c #21201D",
"& c #262522",
"* c #18140D",
"= c #241F13",
"- c #352C1B",
"; c #1E1A12",
": c #322F2B",
"> c #504032",
", c #423930",
"< c #585149",
"1 c #261B0F",
"2 c #4A4743",
"3 c #5C4938",
"4 c #2D0905",
"5 c #433221",
"6 c #40261A",
"7 c #6A5F54",
"8 c #886F58",
/* pixels */
";%%%%%&%=###%%%%%%%%%==%%%%%%%%%===%%==%%%%%%%#X%%%%=%%%%%%#%%%%",
"%ooo.O+oO @- .X++oo+oOO++.o&&&&&##O.O##o@.o&&o -:  oOo+.X+@  oo%",
"%..o. Xo- @@.o&Xo.OooOOo+@O#XX&&OO. OXXo+@O#X#O-@...o+..XX@   O%",
"=Oo+. o+o  @+++X#O.+oOOO.@OO#=XXOOO o+oOo@OO##   +@@+@X#o.. .oo%",
"%.X&..&..Xo++&.o&XX&.@+XO+X##O.X.+.@+o.XX+&##=%o  -:o O#XXO@+X+%",
"# ## O#O#X++&=&.O ## @@  .&XXo@.@@#Xo#O  o&XX+++oOO @.XXO .&+@ O",
"=#OOo+X.+. .+&+.O#OO.o##.oO.+o- X++o@o##.oO.+o .o@@O O##--X&o@-O",
"=o+++ooXX@   OOoX.+++XOOX&&.o%&+XO.oO#OOX+&o.. &&o-+++X#&&XX+o #",
"=#.@+Xooo@  ... O#.@+XX&X.OX%%o## @+X=#o.#=.@##Oo.@o@: .+&.OX+-#",
"%O.@@O#XXO-oX+.-@..@-OXoO#.,,>>,>>>,:o.oOXXOooX#X#OOO.@ .@  ++@O",
"%@@+ .#O O++o.@::o@+@#1@,,,2<33333<2>,:&=o@O :oXoO&oX++X#@  .o@O",
"%O @O#O--X&+@-@@@O .##X,>2<<<3<2<3<<<<>:==.OX+o .++Xo@@.+:-  .@#",
"=OO@.#O-@X&o@--  OOX##:>3<2<33<2<<<<2<2>:X#X&X@ .+@X@---@:- -.o%",
"= o+:Oo&&XX&o   OOX&&+,3>2233322<7<32223>:&==#OO#X.&o --@o.-- +%",
"#O.@@ .oo@ o+--OO##%+,>>,,333322<7<33>5>>,:;%==O##&+oo---+++@O.&",
"###.o@OO  @@+--  #=.::,>,,><22,:2<<<>,,>,::&&%=OOOOo@+--+@-++XO#",
"#OXo++Xo@-OO.@@X=;;:,O >222<<2,:<7<<222, O5@%=1#XO .o@--.@-.o@o=",
"=X.--@.+:-  .X#=;;%%=;@332<3<2::27<3<223-*1;%=#1=1#Xo --@+++++@#",
"%.  ---@@ --.&X-5>>,=*:,5><<33,+,<<<<25,:** -55#&%=OX.-5-+++++@#",
"=X@O.-5-++@  O=11-5O**&:,22<<3>:27<<22>:&**#5 11=X&O.oOO++@-+@-%",
"%.o++--+@@++X=1=1; 1;::::,# >3>:<7>2>:,,o=11 ;*==X&.@XX=++:@@@ =",
"=O  o--o--ooX=#5>335=;.,,>>#@22&2<@->>,,#15>-5, =XX++&o.+o   @.#",
"% -  --.+@++X==#-6661$;,2>>X+22&,2:X,>2,1O561X.1;#Oo++ -:o--  .%",
"X-   -5-++&&%*#11,3>5*46<35=&::@-:+=53<:#5-66@=*=O o+@OO@o-@@ .%",
"#- .. -@+@&%%; ;*,2>>X16,<3:;*= =*;:,>>-5X*65-=*;==X@@##.  oo  %",
"X- O.#X++@.&X#;$$*6661O-6<735#46#*;@<<653O44$$$**;1#  ##o -@o  %",
"&@O#XXX++@ @&1;*$1,#44---77>7>46, #1<765<>6$$***;=#O O#X. --. o%",
"%XOo+.@+o  #==;#=..**-. 37-$3<43<5>5>32:,354***;&X#.+++o  --O.+%",
"%..+@ @+.-@O##=*1== -.*->5$$5>*,,=><3 ::$.,=1;*;%%&++++&o@.OO.oX",
"#- .-##@. ooO#&o=%:55;-5#=*$;;*5-*O3>;$==$#5.%*;%#.++XOOX@## .+%",
"= ---XXo @+o1*;+&;, 46:**;$$**46#$*55*$**$*=@;**=OO@@OX+o#   @&%",
"%X--O#Xo -@o#;;*$; ;44$$$;=$**16#** X$$$44$*O-**;&o@o.XXo-O.@ O=",
"%@- o&.  --O.&=*$=O*$1;$$$*44%373:;*$$4444;%..*;=X&OOO.&o  .@ .%",
"%@ .+++@ -O#X%;;*%@*$;*444441:787,X*$$4444*&:%$%X&+XOOX+.oo+&Oo=",
"=# .o.XX@##O.%;;;:>1$;;$441&@,<8<,:+&X144$$X2:*XXXooOO++o.X&&&&%",
"=O.oOXoXOOO @%*;=22*44=#;41X5>37355%%:@;$$$*22===OooOO.o@O#X=X&=",
"=O.@OX+oO  .#;**#>,*44;=;44 >>>7>,>O*.:*$$$$:>#;=X+oO.OX@OOO=XX=",
"%OO  OXo-O@o;=;*1@o#=*$$$$*5>5>7>5>5*#O$$$$$%o=;X#&.@+.O+&##O.X=",
"%..o@.o+o  @+..;*;;@-*$$*$;=*;>7>#;=O- *$$$$***1O## @@O @&XXo -#",
"%  .o&&..Xo+&.@#;*$+,;$*1$;*$*53:***;#-;$$$$;;;=#..oo##.+O.+o--%",
"# oXOO#O#X++XO--#;$->#$*1$**$*===*$$$*#;$$$$1#=;.+++XOOX+&.@++:%",
"#.+++oX.+. .++&%;;;.-1$$*$$$*;=**;*$$$**$$$$;=;=#O@+XX+o- .@X@-X",
"%X#.o oXX@ OOoXOO;*&@1**$$$%14*$**;%;;$$$$**;=X+..o O.@--.O.@-:&",
"X O#X.Xo.@ .X#X+@=;X 1;;*$$;1444:,+;==*$$$;;;=%+o@:.O# --@  -Oo&",
"%@ O- #XXO-o%.X++=%;;;%+%$*=%144%&%;;%%;1$*%..& OO OO@@   .+@Xo&",
"=X O.&#O .++o==X&##=**;+&$;::%41==+,::+;=;%XOOO O.++X.+oXo++@&+%",
"%..o+&# -X&+@&&&&=;****=;$%2,&41:o,<2:%*1;;%. OO .+:OO.. @&X--o%",
"%O @+XO@.X&+@-o&&%**%1**$$:<2:16,:27,;**1=;%@-  OX.oXO  --XX@-.%",
"%    .o&&.O&o-@++X=X+=**$$ <<,1O,,2<%$$*;=Xo@-- O#.o+o  --Oo+oo%",
"X-    .oo  o++oo+XOo&;***$;,,&*=o&5,;$*;;1#.@-o.O.@@+ --    &Xo%",
".- .. OO  @++XX++XOo%;;;*$*@&$$***% *$*%XOOXoO#XX. -@ @@   .+..%",
"#  .@oXX. OO@+oo+XOo&%%;*$$**$$$$$*;$*;%#-- +.OXo  --#X+&Xo+&O@%",
"#o+.@+.   .o .+XOo+oOX%;;****$$$$$$**;X&&o  ..OXX. X+. .+.O#XO@&",
"%+@ @+.-@  ...&&&+++o#%%;****$$**$*;=#&.@++XO- ...++o@o+oOOOXo.%",
"#o-O#o. .. @XX+..+ooXX&X=;%*$$*;;*1X=1X. Xo.XX@ O  @o OXo .&&XX%",
"#-@XX.  +.  .&o  @@ .&o #===*;;;;1#=1#X+o&++@.+o@-  ..##o ..&oO=",
"#-O#X. -@.  X#Xo.@o.o#XoXX%==;;=OOO##O@&%&++@OX@-  ..o.oOOOO@+.=",
"#@o&.  --O@+o.&%#OX&oO&%#OX.@&;=  #==#+&o@+@-X#@- @o@@.o.. O.:+%",
"#o+++ .@ Ooo.X.XX@+o.o.XX@+.:+%+@#1===++:@@@ ##+- #X+@.&oO  ++.%",
"#oo.Xo@X# o+..@:@@++o.o:@@+.@+@+.##&X.+o@  @.O.+oOO&o .+XO o+..#",
"%o#OXX.OO o+o.+:@.o@..+:@.&O.o++X#o+ -:o--  o .&&Xo+o .&&Xo+o @#",
"% OX+XO  -@&Xo@oo@ - o@...&X##X+.O+@ .@o-@  ..O&&&+++oX&&&++.OO=",
"% @.X@- @@@OXXO.O--O#@+@O#X&XXo.-- @##.@ oo  XX+@ +@ .&+. +@O=#=",
"%XOOX&XOOX&XX%%&Xo+X##Xo###==##=O  .%#XOX&&OOX&XOO.oOX&&OOo+XXX%"
};
