/* XPM */
static char *_03dffb170e74f7cdd2d6fd00cb35725bNFuyFs5tX7fGMdy[] = {
/* columns rows colors chars-per-pixel */
"64 64 244 2 ",
"   c #010301",
".  c #0B0400",
"X  c #0D0901",
"o  c #020508",
"O  c #140500",
"+  c #190600",
"@  c #150C01",
"#  c #1C0C02",
"$  c #130C09",
"%  c #1A0C09",
"&  c #0D1606",
"*  c #141102",
"=  c #1C1303",
"-  c #13110A",
";  c #1C140B",
":  c #1C1907",
">  c #081313",
",  c #1A1615",
"<  c #140F16",
"1  c #240D04",
"2  c #241302",
"3  c #2D1D05",
"4  c #23160B",
"5  c #2A1608",
"6  c #251A0C",
"7  c #2B1C0C",
"8  c #271805",
"9  c #311D0C",
"0  c #241D13",
"q  c #2B1D12",
"w  c #271C1B",
"e  c #341D14",
"r  c #361F15",
"t  c #1E2810",
"y  c #27220C",
"u  c #2C210D",
"i  c #2A2206",
"p  c #33230D",
"a  c #36260B",
"s  c #393309",
"d  c #2D2313",
"f  c #24231B",
"g  c #2C241A",
"h  c #2B2715",
"j  c #342414",
"k  c #3A2514",
"l  c #342915",
"z  c #3C2B15",
"x  c #33251A",
"c  c #3A261A",
"v  c #352B1B",
"b  c #3C2B1B",
"n  c #3C3115",
"m  c #3D311D",
"M  c #37351E",
"N  c #201D24",
"B  c #1C2021",
"V  c #2A2726",
"C  c #362A23",
"Z  c #3D2D22",
"A  c #372721",
"S  c #3C3223",
"D  c #393628",
"F  c #393234",
"G  c #343633",
"H  c #2D3035",
"J  c #43270E",
"K  c #4A2A0D",
"L  c #4A330D",
"P  c #422B14",
"I  c #422E1C",
"U  c #492E1C",
"Y  c #452916",
"T  c #562F16",
"R  c #423016",
"E  c #4B3415",
"W  c #44321D",
"Q  c #4B341D",
"!  c #4C3A1D",
"~  c #473A18",
"^  c #53341D",
"/  c #533C1D",
"(  c #5A3B1C",
")  c #5D3918",
"_  c #552F0B",
"`  c #643A1C",
"'  c #432E22",
"]  c #4A2D22",
"[  c #412C29",
"{  c #443323",
"}  c #4A3524",
"|  c #453926",
" . c #4A3826",
".. c #4D3A24",
"X. c #443429",
"o. c #4B362A",
"O. c #453A2B",
"+. c #4A3A29",
"@. c #4D3A29",
"#. c #4E3D2D",
"$. c #4C3B2A",
"%. c #513523",
"&. c #533C24",
"*. c #593C23",
"=. c #523D2B",
"-. c #5A3F2B",
";. c #503428",
":. c #4B3C32",
">. c #483830",
",. c #523E32",
"<. c #5A3F32",
"1. c #58383A",
"2. c #522B24",
"3. c #683C28",
"4. c #663E35",
"5. c #4C411D",
"6. c #474218",
"7. c #5B421D",
"8. c #55401A",
"9. c #69431E",
"0. c #744F1D",
"q. c #4D432D",
"w. c #494225",
"e. c #554125",
"r. c #5C4325",
"t. c #55422C",
"y. c #5B442C",
"u. c #5D4A2C",
"i. c #594928",
"p. c #4B4534",
"a. c #544332",
"s. c #5B4532",
"d. c #5D4933",
"f. c #5C453A",
"g. c #5C4A3A",
"h. c #56473C",
"j. c #624325",
"k. c #644A24",
"l. c #6C4B24",
"z. c #62462B",
"x. c #6B452B",
"c. c #64492C",
"v. c #6B4B2D",
"b. c #6B4725",
"n. c #734E2D",
"m. c #7A4F2D",
"M. c #734625",
"N. c #6B532C",
"B. c #6B5525",
"V. c #73512C",
"C. c #7A552C",
"Z. c #7E5526",
"A. c #624632",
"S. c #6A4532",
"D. c #634B33",
"F. c #6B4D32",
"G. c #634D3B",
"H. c #6B4E3A",
"J. c #624339",
"K. c #724E33",
"L. c #764A3A",
"P. c #6D5134",
"I. c #65523B",
"U. c #6D533B",
"Y. c #665335",
"T. c #735335",
"R. c #7B5434",
"E. c #765936",
"W. c #7C5935",
"Q. c #73553B",
"!. c #7A553B",
"~. c #755A3C",
"^. c #7B5A3C",
"/. c #74603D",
"(. c #3E4245",
"). c #4D4A4B",
"_. c #664E45",
"`. c #7C4F41",
"'. c #645342",
"]. c #6D5442",
"[. c #735641",
"{. c #7B5641",
"}. c #745A42",
"|. c #7B5C43",
" X c #775B4A",
".X c #7E5D4A",
"XX c #755548",
"oX c #7C6144",
"OX c #7D624C",
"+X c #766049",
"@X c #834D2B",
"#X c #83542C",
"$X c #88562A",
"%X c #815534",
"&X c #835B35",
"*X c #895A34",
"=X c #81553A",
"-X c #825B3C",
";X c #89583A",
":X c #955D38",
">X c #8D5633",
",X c #8B643B",
"<X c #976438",
"1X c #AC6E3E",
"2X c #835D42",
"3X c #8A5E43",
"4X c #846245",
"5X c #82654A",
"6X c #8B6242",
"7X c #986946",
"8X c #9D774C",
"9X c #856D51",
"0X c #A46E46",
"qX c #A9754A",
"wX c #BA774A",
"eX c #AA7B57",
"rX c #B47956",
"tX c #C37B53",
"yX c #CD7B4B",
"uX c #CE7D60",
"iX c #B5834D",
"pX c #BC8161",
"aX c #CA885A",
"sX c #D88B56",
"dX c #D08A54",
"fX c #E79B5A",
"gX c #C98866",
"hX c #D48A67",
"jX c #DB9966",
"kX c #D99273",
"lX c #CB9770",
"zX c #EB9C69",
"xX c #F89E6C",
"cX c #EA9A79",
"vX c #DFA17C",
"bX c #F2AB79",
"nX c #EFA87A",
"mX c #DF9C81",
"MX c #F8B585",
"NX c #F8B794",
"BX c #F6A785",
"VX c #F5B8A3",
"CX c #FDC296",
"ZX c #FCD7B3",
/* pixels */
"{ ,.c c 6 x Z ' | +.{ } I W } I { { k W j c I W ' b { j q c j 9 j 7 e k k j j e c u 5 j 7 6 j u 5 5 7 7 6 4 4 4 4 d * @ @ ; ; 6 ",
"..#.O.; - g b &.} =.=.<.} %.&.} $. . .} #.=.e.=.{ b I c b { { $.X.{ } o.+. . .} b I a.#.{ { ..#.a.$.{ X.X.X.X.o.' o.{ b a.o.b ' ",
"c } Q { $.h.=.} { { l b b { X.m } { { W W ..W { } } } {  .{ { $.$... .{ I W ' ' =.} =.W &.d.A.D.=.} W { $.$. .$.#.{ W b c b X.W ",
"a.f.Q U Y I c Z {  .} } } $.$.#.}  .{  .W  .{ $.b } W b b c k j ' { W I I { { I b  .} =.e...Q I { { { { { W W  .'  .I b c ' } } ",
"b { p.S D D x W o.+.#.o. .X. . .+.+.#.#.a.X.#.+.{ +.{ I W { { Z Z X. . .#.#.+.{ x X.W ...... .t.X.X.X.I c k c { { {  .{ #.{ o.{ ",
"@ j d 7 h x q 5 v d j d j j l j k c j j m j z k { I P z a j d 6 4 q p k W { I P { } W W R W p j c c c k j d j j v : y h 6 : d h ",
"C _.} *.%.=.$.X.Z c $.=.;.;.=.=.+.a. ...y.I.Y.P.}.Y.U.D.y.y. .l j W ! e.G.].U.Q.U.T.~.Q.Y.d.#.,. . .=.a.+.#.O.v Z o.{ t.;.$. .G.",
"b a.{ { $.+.W R v 6 v Z { $.t.{ } ..y.Q y.F.P.T.U.v.T.v.j.Y.e.z j W r.v.~.[.T.R.!.K.R.^.^.*.=.;.} { =.=.' Z b 4 c b } .. .X. .} ",
", o.Y q.C , o.Q Z 7 c ..W } o.>... .d.'.{ ].D.c.Y.P.v.z.D.g.t.P y ..&.z.!.R.^.n.Q.F.Q. X&.I.d.O.#.+.O.+.I ..c 7 P | D 4 Z +.{ } ",
"@ 7 a.} { 6 j } o.j t.e.Q I  .{  .X.} I.G...].U.U.v.T.P.D.g.s.z u { &.S.Q.!.Q.P.P.U.OX-.G.G.{ +.} { X.b &.&...b %.o.d y b } <.q ",
"n * g 1.;.m m { s.e.R &.y.&.z +.X.{ W z s.s.} }. XU.F.T.D.g.=.k p { -.H.K.Q.Q.}.T.Q.A.=.t.W I ' } ..z t.y./ &.W f.' S M | <.e % ",
"! v @ x f.z W X.P } ..Q &.e...b o.I ..z W } s.t.}.}.F.F.D.D.X.k j W D.F.S.Q.~.OXT.D.Q =.b b $.' } I =.&.&.......U { | b f.l @ ' ",
"W =.$.* d f.Y { p j { W ..e.#.+.'  .W y.I I =...s.Q.Q.F.c.c.} b l W D.D.F.~.}. Xy.U f.b { s.{  .b +.t...#.W { j p ..b f.x * q.=.",
"I y.u.q.* b <.} $.j = | { ..s.t.{ z W I a.{ I t.e.d.Y.P.c.c...l l W d.c.Q.^.U.D.&.=. .{ #.W } z +.#.e... .{ = d ~ } <.Z @ s.D.Q ",
"W Q j.oXt.O x f.{ X.d 7 ..Q &.Q t.W z I X.$.a.t.a.=.y.c.K.v.&.j j { d.Y.~.U.s.=.d.=.$.,.{ W z W s.&./ Q W 7 j X.$.,.b @ ..U.c.~ ",
"v ..v.=X.X| @ Z f.X.$.7 9 D.^ *.&...W b ' o.,.t.,.$.$.*.R.v.&.S j $.D.[.Q.D.$.+...g.o.$.} z W ..&./ 7.z.p j X. .4.S * t.Q.v.e.! ",
"Q W D.=Xm.Q.q.. Z G.} :.d Y v.r.z.} ,.b c  .I &.} ( q.+.x.Y.p.I k | s.=XL.X.5.&.Q .. .{ b b =...z.*.Y.l y w. .J.D + s.U.c.u.e.&.",
"W ..D.T.R.^.Y.+.. { d.Q +.q b c.*.y.a.a.b j { I O.=.E ..,.4.( D w 8.'.z.&.p.Q =. .W { k I t.e.y./ D.' j $.W '.X.@ a. XS.r.i.e...",
"m =.A.F.^.-X^.}.:.@ S D.I D d z ..e.s.y.=.I j X.~ o.X.W =.#.M s f i.T Z p.K { } O.{ k W &.&.z.&.&.b 5 } ] J.{ * s.OXH.F.c.u.e.} ",
"z &.A.Y.oX2X=X^.^.m - X.s.} #.l l t.t.&.&.e. .Z *.o.f.T 3Xb./ D u ! ,.:X#XC h...:.b  .&.&.y.y.=.c 7 t.P G.1.+ 6.|.~.F.Q.c.D.y.{ ",
"z ^ z.Y.oX2X^.T.m.~.O.X #.D.&.a.j k $.y.&.y.d.I c { e.qXzXhXS.[ Y b 7XNXmX#X| S k W d.e.&.t.o.c k t.e.d.:.% e.^.K.Q.Q.T.v.z.&.{ ",
"R Q c.D.}.}.|.Q.^.%X^.X.- I z.D.$.7 c =.e.y.y.t.W M.v.B.<Xx.1 rXkXK.3 7X=Xv.C.` P y.y.y.t. .v w t.u.e.:.X ~ E.`.!.-XT.P.T.e.&.W ",
"{ Q z.x.T.U.^.R.4XR.&XoXx @ X.D.q. .j b } &.s. .rXBXwXv.x &.#XrXvX3Xk.d ;.$XlXNXG.} t.&.W { k X...d.#.O m N.N.|.n.-XQ.Q.F.r.y.z ",
"{ { y.x.!.Q.^.@X2X|.P.W.|.C . O.t.W #.c j o.b c :X,X0.%X!.U.5.( E W U.=X*X&X3.0Xa.7 b $.p k } { u.X.@ z y.H.H.N.&X2XP.P.P.z.*.z ",
"b &.S.H.^.T.R.#XQ.{.W.&X2XD.{ X o.+...*.9 S S , E Q #.!.MXgXY o.v.k 0XNXqXP 8.( U > n v k ^ :.E O.= j s.D.c.F.T.-XC.!.T.n.j.-.R ",
"c ! A.H.^.R.^.W.4XW.-X&XR.S.u.x $ ,.%.} :.e ^ _ 0XpX9.K l.7.z a ] ; k.N.( ] eX8XY K } c X.$.} h.@ 6 #.t.D.D.F.K.&X{.R.K.v.z.k.} ",
"I ! A.U.~.~..XR.&X2XC.V.!.v.y.W : ; >.q.P T.%.b K.7XK D g } n.jXMX0X) j.! S 3.u B l K.3.l g.o.- = u t...y.c.Q.|.=X&X!.v.F.k.A.&.",
"{ ! A.U.Q.~..XQ.&XR.R.W.!.S.k.W i ; , O.V.7.W . x i.^.S.W a S.T.8X! U A.*.!.Q @ o 9 L N.4.>.& 8 x 7 { e.D.D.Q. XR.R.R.D.l.y.y...",
"W ! y.D.T.~..XQ.R.!.^.^.Q.A.i.} x k ; j |.2 G.rX:XkXMXdXbX<XE / b *.E lXhXnXCXqX*XpX: ! !.< y Q d u ..y.e.D.U.[.V.Q.T.F.F.y.e.+.",
"{ 8.y.S.T.!..XQ.c.XXT.P. Xc.&.W q z w.P S.$ @ aXxXZXVXcXrXK.S.3 w z K.,XhXzXZXNXzX!   } E u d.W u l ..*.*.S.P.|.T.P.H.v.H.r.y.+.",
"W e.D.F.%X=X{.P.U.U.[.^.^.G.i.I d a t.c.) - o b.fXbXbXdXtX#XD.w   ) K.:XsXfXMXBX1X- X | k.l.p...j k &.y.c.v.K.Q.T.P.Y._.N.s.s.} ",
"b e.D.K.&X;X^.P.U. X~.E.{.c.e.} t k <.t.s v c sXkXrXaXwXeX0X$Xk > 9.%XqXeXtXtXiXcXK.7 W } G.o.W b 5 &.r.j.x.!.T.Q.U.U.P.H.D.y.W ",
"{ Q v.V.^.T.|.R.%XE.!.F.~.F.e.} 0 I *.U.Y 3 y.T.> ( 7.  $ %XM.* o P :XU o g @X7 J /.z p Q U.*.L d d ..r.c.D.D.oX%XR.^.P.z.r.c...",
"W E k.v.Q.Q.^.V.&X-X2XQ.|.Q.e.^ d k y.y.t.9 P r.c.P b.].+.W c x.=XR b Q r.&Xh ` r.&.p W s.U.c.*.h d ..r.r.D.Q.P.%XR.T.P.F.c.c.W ",
"W Q c.n.!.^.2XR.R.W.^.~.!.T.5.Q x k &.&.=.a.W P C.J 2.$X0.7 ,XxXMXdX! W Z.r.z c.y.3 t.t.$.&.c.&.v d W r.r.S.~.E.%XR.^.T.F.z.y.W ",
"W Q j.v.T.!.2X&X%X^.2X!.T.v.c.&.6  .P t. .a.{ 2 D #X`.e.* Y.wXhXjXtXqXf K $X@Xd.9 p { #...y. .Q l j } r.r.S.T.,XR.=X2XQ.c.*.e.Q ",
"W ..z.F.Q.R.-X;X=X4X2XR.E.v.F...5 { s.} { { p { g d.C.$.7 iXaXyX1XaXgXB.% ).H.y.{ W j o.W ..,.I j k ../ r.F.K.W.&X^.^.T.c.r.y.Q ",
"W &.D.Q.~.R.R.-X^.3X^.T.!.c.u.W W a.#.W W z $.#.J d i.t.b d @ n.<XI # W W P.+.J b :.} z  .{ t.G.W j  .i.y.H.F.V.-X^.~.P.v.z.c...",
"n ..A.U.Q.T.T.!.Q.=X~.Q.-Xv.&.{ a.#. .} W Q { c y n.5X3 ..J ` ..5 n.s ] n m 9Xk l ' =.Q b  .z { t.{ { y.D.A.F.V.^.Q.Q.F.c.z.c...",
"n &.A.Y.U.Q.Q.^.P.K.}.!.^.Y.^ q.t.W +.W } I p  .0 c.6XI c j.N.U w i.M.&.c l.7XP x { r I ! W  .! t.f.W ..D.s.H.E.Q.F.Y.F.S.z.y.W ",
"W &.F.T.F.U.oX^.}.}.~.!.~.&.t.#. .t...W b j Z v d ' =.p , ; / %X!.n.p H 7 E ! } 0 v Z j {  .W &.$.;.a.+.s.y.H.~.}. XU.D.F.z.u.W ",
"W e.F.T.T.T..X|.}.5X}.Q.z.A.=.{ #.W #.I j b q q 7 $.W b F G ..D.F.OXS (.v I W #.h 4 q b k I =...$.I  .d.y.y.D.|.|.}.}.}.c.F.e.! ",
"W e.F.T.!.T.^.^.Q.}.[.D.G.=.{ $.W $.I k I 5 2 #. .{ P #.F V f 0 i 1 0 ).m ,.' W { a.# 7 ' j I ..}  .} t.I.&.U.Q.Q.T.}.U.c.z.&.W ",
"W &.F.Q.^.Q.!.!.4X~.y.d.=.$.$.W ..W 9 ' ' 5 W d.t.Q Q  .V V G f d j g H x X.{ W t.d.I 7 b { 9 I $.W #.W e.Y.&.Q.^.|.T.c.v.r.d.{ ",
"W &.F.T.^.Q.Q.!.T.z.D.=. .$.j  .m p { o.c } s...X.Q &. .j ; V f h z d V x } ! =.W } s.I b o.I k {  .k  .=.=.A.y.T.5XP.P.F.F.e.W ",
"W &.F.T.!.~.~.Q.&.s.e.&.s.j { { 8 W a. .' o.W } ' Q I G.{ @ A q g ! a N X.G.P ] W =.} {  .{ a.I 5 o.{ k t.=.=.A.y.Q.}.P.F.F...W ",
"W ..P.T.~.[.U.D.G.t.&.e.z ..a.j c  .+. .{ {  .{ =.W f.c 7 g 0 6 d y.z , : b d.I t. . .{ b  .=.} k j $.=.p s.y.=.s.d.U.D.v.z.y...",
"W ..P.Q.}.[.D.&.{ I y.&.Q ..9 c #. .X.{ I { =.$.b e.{ ; S 0 V y p %.{ , h % Z y.b =. .+.X.I W } #.z a Q Q ..y.W } =.y.Q.v.z.u.W ",
"{ &.D.{..Xs.} } W =.y.=.,.k { +...} $.$.Z  .=.Z q.Z + y.w.h j 6 p ..z 3 s.! @ F ..{ :.{ { :.' Q ..#.' A =...D.-.{ X.$.s.U.e.e.W ",
"W W D.F.y.=. .I } ..&.Q $.X. .$.I Q b X.W a.Z d.S + f.U./ z d c j ..! P Y.oX..O D =.Q #.Z { }  .I {  .{ =.} } &.X.k { =.=.d.e.W ",
"b ..y.&.y. .b +.{ s.Q P =.a.a.I ..I I } o.X.a.Z * f.XXD.R.z.W P j n &.D.K.W.|.=.X  .*.Q { $.b b ,.W &.t. .' } e.{  . . .t.} s...",
"m &...y.#.c #. .=.=.W W f.a.j ..W { ..Q o.:.{ + e..X!.K.3.c.t.k u W *.K.K.V.4XoXU . S y.^ X.O.' ' t.z ..d.{ { =.a.{ $.k a.=...W ",
"b I y...{ ,.$.$.f.W W G.$.I } Q O.R ..' t.X.+ e.;X^.^.v.r.*.&.c j ..*.x.n.R.W.-X;XX.X :.s.I #.} } { { b t.D.z o.s.{ $.+. .=.$.{ ",
"b =.{ +.o.X.a.$.' { t.t. .o.b ..#.{ z a.{ # &.5X>XW.R.v.u.e.D.x p  .*.v.F.~.!.,X&XoX:.. >.y.J ' &.{ Z o.W t.s.I { $.a.#.{ { =.=.",
"a. .{ #.d x #.I c {  .#. .{ {  .I b =.#.% { ~.m.3X^.P.D.y.c.e.{ p  .s.v.Q.}.{.C.2X^.|.{ @ #.=.{ z  .I { X.+.t.{ I I #.d x X.b  .",
"o.{ c x ; g X.z b +.#.k k o.+. .{ &.,.% S g.Q.Z.U.Q.P.D.S.v.e.j p X.=.u.}.G.[.R.U.!.-XT.m X h...} $...{ x c  ...c { { x = b m b ",
"Z I } I j Z S j c X.Z 4 b $...} #.g.1 P D.z.F.^.H.U.H.S.c.y...b d { s.Y.U.T.Q.^.Y.Q.T.Q.|.p + h. .} &...b = c  .k c S Z e } { { ",
"b W Q } #.b 4 7 g.X.c c #.=.} W g.{ 7 D.D.y.Q.|.|.}.P.v.v.c.! z p Q z.F.T.T.!.^.+XU.5X~.|.G.8 O.g...} =.#.j { { G.9 2 { $.{ I b ",
"o.s.} W +.{ c #.g.=.s.s.s.s.G.G.I.d.s.G.y.D.U.I.H.G.f.s.d.y.e...#.a.s.y.y.s.A.D.s.d.y.y.y.d.=.$.f.=.} ..s.#.a.#.f.=.b X.f.=.=.t.",
"k =.y.=. .+.#...o. .t...W ..=.=.e.s.=.....} W ..} o.o.o. . ...=.+.+.X.X.X.{ b x  .} ..&.&.t.a.#.b I W b { S +.{ b I { { { { =. .",
"7 I I { c b  .Q  .{ { W W W z I z k I ..=.} $.=.W W { | ....e.y.&...&.&.=... .$.,.{ =.} ..=.{ { +.=.&.} X.b X.} | a.a.S { x k o.",
"{ g.$.+.b b { }  .=.=.=.t...W t.=.=.=.a.=.t.a.+.#.{ b X.t.s.t.#.&.} W { $. .#.t. .$.I b  .W =.X.{  .Q I { { W I { X.#.x 4 : 7 c ",
"c G.{ k q 6 7 9 z b k k k b p j k k j k k k k c x d q q j j q 4 j j u j x x j u k I b b c k b k j b z k b X.{ b { W b b b x c $.",
"j f. .a.p.:.:.X...{ { ' c b c W S v S { v v j l l m { W z z b v W ....Q Q &.&.&.Q }  .=. .{  .' { { { } +.+.{ #...&.} ..{ | $.} "
};
